!!!COM: Beethoven
!!!OTL: Op. 18 no. 1 mvmnt 1
**kern	**dynam	**kern	**dynam	**kern	**dynam	**kern	**dynam	**mxhm
*part4	*part4	*part3	*part3	*part2	*part2	*part1	*part1	*part1
*staff4	*	*staff3	*	*staff2	*	*staff1	*	*
*I"Cello	*	*I"Viola	*	*I"Violin II	*	*I"Violin I	*	*
*I'Vc.	*	*I'Vla.	*	*I'Vln. II	*	*I'Vln. I	*	*
*clefF4	*	*clefC3	*	*clefG2	*	*clefG2	*	*
*k[b-e-a-d-]	*	*k[b-e-a-d-]	*	*k[b-e-a-d-]	*	*k[b-e-a-d-]	*	*
*A-:	*	*A-:	*	*A-:	*	*A-:	*	*
*M3/4	*	*M3/4	*	*M3/4	*	*M3/4	*	*
=1	=1	=1	=1	=1	=1	=1	=1	=1
([4A-	p	([4A-	p	([4a-	p	([4a-	p	I
8A-L]	.	8A-L]	.	8a-L]	.	8a-L]	.	.
16B-L	.	16B-L	.	16b-L	.	16b-L	.	.
16A-JJ)	.	16A-JJ)	.	16a-JJ)	.	16a-JJ)	.	.
8G'L	.	8G'L	.	8g'L	.	8g'L	.	.
8A-'J	.	8A-'J	.	8a-'J	.	8a-'J	.	.
=2	=2	=2	=2	=2	=2	=2	=2	=2
4E-	.	4E-	.	4e-	.	4e-	.	V
4r	.	4r	.	4r	.	4r	.	.
4r	.	4r	.	4r	.	4r	.	.
=3	=3	=3	=3	=3	=3	=3	=3	=3
([4A-	.	([4A-	.	([4a-	.	([4a-	.	I
8A-L]	.	8A-L]	.	8a-L]	.	8a-L]	.	.
16B-L	.	16B-L	.	16b-L	.	16b-L	.	.
16A-JJ)	.	16A-JJ)	.	16a-JJ)	.	16a-JJ)	.	.
8G'L	.	8G'L	.	8g'L	.	8g'L	.	.
8A-'J	.	8A-'J	.	8a-'J	.	8a-'J	.	.
=4	=4	=4	=4	=4	=4	=4	=4	=4
4F	.	4F	.	4f	.	4f	.	IV6
4r	.	4r	.	4r	.	4r	.	.
4r	.	4r	.	4r	.	4r	.	.
=5	=5	=5	=5	=5	=5	=5	=5	=5
(2.F	<[	(2.f	<[	([2.dd-	<[	([4aa-	<	.
.	.	.	.	.	.	8aa-L]	.	.
.	.	.	.	.	.	16bb-L	.	.
.	.	.	.	.	.	16aa-JJ)	.	.
.	.	.	.	.	.	8gg'L	.	.
.	.	.	.	.	.	8aa-'J	[[	.
=6	=6	=6	=6	=6	=6	=6	=6	=6
2.G)	>]	[2.e-)	>]	2dd-]	>	2bb-	>	V65
.	.	.	.	4b-)	]]	4dd-	]]	.
=7	=7	=7	=7	=7	=7	=7	=7	=7
(4A-	.	(4e-]	.	(2a-	.	(2cc	.	vi
4F	.	4f	.	.	.	.	.	.
4D-)	.	4B-)	.	8.dd-L	.	8.ffL	.	ii6
.	.	.	.	16b-Jk)	.	16dd-Jk)	.	.
=8	=8	=8	=8	=8	=8	=8	=8	=8
2.E-	.	(8e-L	.	(2a-	.	(2cc	.	V(64)
.	.	8d	.	.	.	.	.	.
.	.	8e-	.	.	.	.	.	.
.	.	8dJ	.	.	.	.	.	.
.	.	4e-)	.	4g)	.	4b-)	.	V\\
=9	=9	=9	=9	=9	=9	=9	=9	=9
([4A-	f	([4A-	f	([4a-	f	([4a-	f	I
8A-L]	.	8A-L]	.	8a-L]	.	8a-L]	.	.
16B-L	.	16B-L	.	16b-L	.	16b-L	.	.
16A-JJ)	.	16A-JJ)	.	16a-JJ)	.	16a-JJ)	.	.
8G'L	.	8G'L	.	8g'L	.	8g'L	.	.
8A-'J	.	8A-'J	.	8a-'J	.	8a-'J	.	.
=10	=10	=10	=10	=10	=10	=10	=10	=10
4E-	.	4E-	.	4e-	.	4e-	.	V
4r	.	4r	.	4r	.	4r	.	.
4r	.	4r	.	4r	.	4r	.	.
=11	=11	=11	=11	=11	=11	=11	=11	=11
([4A-	.	([4A-	.	([4a-	.	([4a-	.	I
8A-L]	.	8A-L]	.	8a-L]	.	8a-L]	.	.
16B-L	.	16B-L	.	16b-L	.	16b-L	.	.
16A-JJ)	.	16A-JJ)	.	16a-JJ)	.	16a-JJ)	.	.
8G'L	.	8G'L	.	8g'L	.	8g'L	.	.
8A-'J	.	8B-'J	.	8a-'J	.	8a-'J	.	.
=12	=12	=12	=12	=12	=12	=12	=12	=12
4F	.	4F	.	4f	.	4f	.	IV6
4r	.	4r	.	4r	.	4r	.	.
4r	.	4r	.	4r	.	4r	.	.
=13	=13	=13	=13	=13	=13	=13	=13	=13
2.r	.	2.r	.	2.r	.	([4aa-	p	.
.	.	.	.	.	.	8aa-L]	.	.
.	.	.	.	.	.	16bb-L	.	.
.	.	.	.	.	.	16aa-JJ)	.	.
.	.	.	.	.	.	8gg'L	.	.
.	.	.	.	.	.	8aa-'J	.	.
=14	=14	=14	=14	=14	=14	=14	=14	=14
2.eX	p > < [[	2.dd-	p < > ]]	2.gg	p > < [[	(2ccc	<	#viio7(6)/vi
.	.	.	.	.	.	4bb-')	>]	#viio7/vi
=15	=15	=15	=15	=15	=15	=15	=15	=15
2.r	[	2.r	]	2.r	[	([4bb-	]	.
.	.	.	.	.	.	8bb-L]	.	.
.	.	.	.	.	.	16cccL	.	.
.	.	.	.	.	.	16bb-JJ)	.	.
.	.	.	.	.	.	8aaX'L	.	.
.	.	.	.	.	.	8bb-'J	.	.
=16	=16	=16	=16	=16	=16	=16	=16	=16
2.aX	> < [[	2.gg-X	> < [[	2.ee-	< > ]]	(2ddd-	< >	#viio7(4)/ii
.	.	.	.	.	.	4ccc')	]]	#viio7/ii
=17	=17	=17	=17	=17	=17	=17	=17	=17
2.r	[	2.r	[	2.r	]	([4ccc	]	.
.	.	.	.	.	.	8cccL]	.	.
.	.	.	.	.	.	16ddd-L	.	.
.	.	.	.	.	.	16cccJJ)	.	.
.	.	.	.	.	.	8bb-'L	.	.
.	.	.	.	.	.	8ccc'J	.	.
=18	=18	=18	=18	=18	=18	=18	=18	=18
!LO:TX:b:Bi:t=Cresc.	!	!LO:TX:b:Bi:t=Cresc.	!	!LO:TX:b:Bi:t=Cresc.	!	!LO:TX:b:Bi:t=Cresc.	!	!
4.d-	.	(4.aX	.	(4.gg-X	.	(4.eee-	.	ii6(11#7b6)
8d-L	.	8b-L	.	8ffL	.	8ddd-L	.	ii6
8d-	.	8cc	.	8ee-	.	8ccc	.	.
8d-J	.	8dd-J)	.	8dd-J)	.	8bb-J)	.	.
=19	=19	=19	=19	=19	=19	=19	=19	=19
(2e-	.	(2ee-	.	(2cc	.	(2aa-	.	V(64)
.	.	.	.	16qqdd-/LL	.	16qqbb-/LL	.	V(6)
.	.	.	.	16qqcc/	.	16qqaa-/	.	.
.	.	.	.	16qqb-/	.	16qqgg/	.	.
.	.	.	.	16qqcc/JJ	.	16qqaa-/JJ	.	.
4E-)	.	4g)	.	8ee-L	.	8cccL	.	.
.	.	.	.	8dd-J)	.	8bb-J)	.	V7
=20	=20	=20	=20	=20	=20	=20	=20	=20
4A-	p	4a-	p	4cc	p	4aa-	p	I\\
4r	.	4r	.	4r	.	4r	.	.
4r	.	4r	.	4r	.	4r	.	.
=21	=21	=21	=21	=21	=21	=21	=21	=21
2.r	.	2.r	.	([4e-	.	2.r	.	I
.	.	.	.	8e-L]	.	.	.	.
.	.	.	.	16fL	.	.	.	.
.	.	.	.	16e-JJ)	.	.	.	.
.	.	.	.	8d'L	.	.	.	.
.	.	.	.	8e-'J	.	.	.	.
=22	=22	=22	=22	=22	=22	=22	=22	=22
!	!	!	!LO:DY:a	!	!	!	!	!
2.d	sf	2.cc-X	sf sf	(2g-X	.	(4.aa-	sf	#viio7(b4)/V
.	.	.	.	.	.	16bb-LL	.	.
.	.	.	.	.	.	16aa-JJ)	.	.
.	.	.	.	4f')	.	8gg'L	.	#viio7/V
.	.	.	.	.	.	8aa-'J	.	.
=23	=23	=23	=23	=23	=23	=23	=23	=23
2.r	.	2.r	.	([4f	.	2.r	.	.
.	.	.	.	8fL]	.	.	.	.
.	.	.	.	16g-XL	.	.	.	.
.	.	.	.	16fJJ)	.	.	.	.
.	.	.	.	8eX'L	.	.	.	.
.	.	.	.	8f'J	.	.	.	.
=24	=24	=24	=24	=24	=24	=24	=24	=24
2.E-	sf	2.d-	sf	(2a-	sf	(4.bb-	sf	V7(4)
.	.	.	.	.	.	16cccLL	.	.
.	.	.	.	.	.	16bb-JJ)	.	.
.	.	.	.	4g')	.	8aaX'L	.	V7
.	.	.	.	.	.	8bb-'J	.	.
=25	=25	=25	=25	=25	=25	=25	=25	=25
2.r	.	2.r	.	([4b-	.	2.r	.	.
.	.	.	.	8b-L]	.	.	.	.
.	.	.	.	16ccL	.	.	.	.
.	.	.	.	16b-JJ)	.	.	.	.
.	.	.	.	8aX'L	.	.	.	.
.	.	.	.	8b-'J	.	.	.	.
=26	=26	=26	=26	=26	=26	=26	=26	=26
2A-	sf	2g-X	sf	(2dd-	sf	(4.eee-	sf	V7(4)/IV
.	.	.	.	.	.	16fffLL	.	.
.	.	.	.	.	.	16eee-JJ)	.	.
4AA-	.	4g-	.	4cc')	.	8ddd'L	.	V7/IV
.	.	.	.	.	.	8eee-'J	.	.
=27	=27	=27	=27	=27	=27	=27	=27	=27
2d-	sf	(2aX	sf	(2ee-	sf	(4.fff	sf	ii6(9#4)
.	.	.	.	.	.	16ggg-XLL	.	.
.	.	.	.	.	.	16fffJJ)	.	.
4D-	.	4b-')	.	4dd-')	.	8eeeX'L	.	ii6
.	.	.	.	.	.	8fff'J	.	.
=28	=28	=28	=28	=28	=28	=28	=28	=28
4E-'	f	4d-'	f	(8ccL	f	4ggg'	f	V7
.	.	.	.	8b-)	.	.	.	.
4E-'	.	4d-'	.	(8cc	.	4ggg'	.	.
.	.	.	.	8b-)	.	.	.	.
4E-'	.	4d-'	.	(8cc	.	4ggg'	.	.
.	.	.	.	8b-J)	.	.	.	.
=29	=29	=29	=29	=29	=29	=29	=29	=29
!	!LO:DY:a	!	!LO:DY:a	!	!	!	!	!
4AA-	p	8cL	p	8a-L	.	4aaa-	.	I\\
.	.	8e-J	.	8c 8a-	.	.	.	.
4r	.	8e-L	.	8c 8a-	.	4r	.	.
.	.	8e-	.	8c 8a-	.	.	.	.
4r	.	8e-	.	8c 8a-	.	4r	.	.
.	.	8e-J	.	8cJ 8a-	.	.	.	.
=30	=30	=30	=30	=30	=30	=30	=30	=30
(4.E-	.	8e-L	.	8cL 8a-	.	4r	.	V[I6
.	.	8e-	.	8c 8a-	.	.	.	.
.	.	8e-	.	8c 8a-	.	8r	.	.
16FLL	.	8e-	.	8c 8a-	.	8cc	p	.
16E-JJ)	.	.	.	.	.	.	.	.
8D'L	.	8e-	.	8c 8a-	.	4cct	.	.
8E-'J	.	8e-J	.	8cJ 8a-	.	.	.	.
.	.	.	.	.	.	16qqb-/LL	.	.
.	.	.	.	.	.	16qqcc/JJ	.	.
=31	=31	=31	=31	=31	=31	=31	=31	=31
4EE-	.	8e-L	.	8B-L 8g	.	(4.ee-	.	V64
.	.	8e-	.	8B- 8g	.	.	.	.
4r	.	8e-	.	8B- 8g	.	.	.	.
.	.	8e-	.	8B- 8g	.	8dd-L)	.	V43
4r	.	8e-	.	8B- 8g	.	8b-'	.	.
.	.	8e-J	.	8B-J 8g	.	8a-'J	.	.
=32	=32	=32	=32	=32	=32	=32	=32	=32
(4.E-	.	8e-L	.	8B-L 8g	.	4g	.	.
.	.	8e-	.	8B- 8g	.	.	.	.
.	.	8e-	.	8B- 8g	.	8r	.	.
16FLL	.	8e-	.	8B- 8g	.	8dd-	.	.
16E-JJ)	.	.	.	.	.	.	.	.
8D'L	.	8e-	.	8B- 8g	.	4dd-T	.	.
8E-'J	.	8e-J	.	8B-J 8g	.	.	.	.
.	.	.	.	.	.	16qqcc/LL	.	.
.	.	.	.	.	.	16qqdd-/JJ	.	.
=33	=33	=33	=33	=33	=33	=33	=33	=33
4EE-	.	8e-L	.	8cL 8a-	.	(4.ff	.	I6(6)
.	.	8e-	.	8c 8a-	.	.	.	.
4r	.	8e-	.	8c 8a-	.	.	.	.
.	.	8e-	.	8c 8a-	.	8ee-L)	.	I6
4r	.	8e-	.	8c 8a-	.	8cc'	.	.
.	.	8e-J	.	8cJ 8a-	.	8b-'J	.	.
=34	=34	=34	=34	=34	=34	=34	=34	=34
(4.E-	.	8e-L	.	8cL 8a-	.	4a-	.	.
.	.	8e-	.	8c 8a-	.	.	.	.
.	.	8e-	.	8c 8a-	.	8r	.	.
16FLL	.	8e-	.	8c 8a-	.	8aa-	.	.
16E-JJ)	.	.	.	.	.	.	.	.
8D'L	.	8e-	.	8c 8a-	.	4aa-T	.	.
8E-'J	.	8e-J	.	8cJ 8a-	.	.	.	.
.	.	.	.	.	.	16qqgg/LL	.	.
.	.	.	.	.	.	16qqaa-/JJ	.	.
=35	=35	=35	=35	=35	=35	=35	=35	=35
4EE-	.	8e-L	.	8d-L 8b-	.	(4.ccc	.	V2(6)
.	.	8e-	.	8d- 8b-	.	.	.	.
4r	.	8e-	.	8d- 8b-	.	.	.	.
.	.	8e-	.	8d- 8b-	.	8bb-L)	.	V2
4r	.	8e-	.	8d- 8b-	.	8bb-'	.	.
.	.	8e-J	.	8d-J 8b-	.	8aa-'J	.	.
=36	=36	=36	=36	=36	=36	=36	=36	=36
(4.E-	.	8e-L	.	8d-L 8b-	.	(8aa-L	.	.
.	.	8e-	.	8d- 8b-	.	8ggJ)	.	.
.	.	8e-	.	8d- 8b-	.	8gg'L	.	.
16FLL	.	8e-	.	8d- 8b-	.	8ff'	.	.
16E-JJ)	.	.	.	.	.	.	.	.
8D'L	.	8e-	.	8d- 8b-	.	8ee-'	.	.
8E-'J	.	8e-J	.	8d-J 8b-	.	8dd-'J	.	V2]
=37	=37	=37	=37	=37	=37	=37	=37	=37
4EX'	.	8gL	.	8cL 8b-	.	([2.cc	.	V65/vi
.	.	8g	.	8c 8b-	.	.	.	.
4C'	.	8eX	.	8c 8b-	.	.	.	.
.	.	8e	.	8c 8b-	.	.	.	.
4E'	.	8g	.	8c 8b-	.	.	.	.
.	.	8gJ	.	8cJ 8b-	.	.	.	.
=38	=38	=38	=38	=38	=38	=38	=38	=38
4F	.	8fL	.	8cL 8a-	.	8ccL]	.	vi
.	.	8f	.	8c 8a-	.	16ddL	.	.
.	.	.	.	.	.	16eeXJJ	.	.
4r	.	8f	.	8c 8a-	.	16ffLL	.	.
.	.	.	.	.	.	16gg	.	.
.	.	8f	.	8c 8a-	.	16aa-	.	.
.	.	.	.	.	.	16ggJJ	.	.
4r	.	8f	.	8c 8a-	.	16ffLL	.	.
.	.	.	.	.	.	16ee-	.	.
.	.	8fJ	.	8cJ 8a-	.	16dd	.	.
.	.	.	.	.	.	16ccJJ)	.	.
=39	=39	=39	=39	=39	=39	=39	=39	=39
4D	.	8fL	.	8B-L 8a-	.	([2.b-	.	V65/V
.	.	8f	.	8B- 8a-	.	.	.	.
4BB-'	.	8d	.	8B- 8a-	.	.	.	.
.	.	8d	.	8B- 8a-	.	.	.	.
4D'	.	8f	.	8B- 8a-	.	.	.	.
.	.	8fJ	.	8B-J 8a-	.	.	.	.
=40	=40	=40	=40	=40	=40	=40	=40	=40
4E-	.	8e-L	.	8B-L 8g-X	.	8b-L]	.	v.i
.	.	8e-	.	8B- 8g-	.	16ccL	.	.
.	.	.	.	.	.	16ddJJ	.	.
4r	.	8e-	.	8B- 8g-	.	16ee-LL	.	.
.	.	.	.	.	.	16dd	.	.
.	.	8e-	.	8B- 8g-	.	16ee-	.	.
.	.	.	.	.	.	16ddJJ	.	.
4r	.	8e-	.	8B- 8g-	.	16ee-LL	.	.
.	.	.	.	.	.	16dd	.	.
.	.	8e-J	.	8B-J 8g-	.	16ee-	.	.
.	.	.	.	.	.	16ddJJ)	.	.
=41	=41	=41	=41	=41	=41	=41	=41	=41
[2.C-X	.	(4.G-X	.	([2.e- 2.g-X	.	([2.ee-	.	VI
.	.	16A-LL	.	.	.	.	.	.
.	.	16G-JJ)	.	.	.	.	.	.
.	.	8F'L	.	.	.	.	.	.
.	.	8G-'J	.	.	.	.	.	.
=42	=42	=42	=42	=42	=42	=42	=42	=42
2.C-]	.	2.G-X	.	4e-]) 4g	.	4.ee-]	.	.
.	.	.	.	4e-'	.	.	.	.
.	.	.	.	.	.	16ff-XLL	.	.
.	.	.	.	.	.	16ee-JJ)	.	.
.	.	.	.	4e-'	.	8dd-'L	.	.
.	.	.	.	.	.	8ee-'J	.	.
=43	=43	=43	=43	=43	=43	=43	=43	=43
[2.D-	.	(4.G-X	.	[2.f-X	.	(4.gg-X	.	V43/VI
.	.	16A-LL)	.	.	.	8ff-XL)	.	.
.	.	16G-JJ	.	.	.	.	.	.
.	.	8F'L	.	.	.	8dd-'	.	.
.	.	8G-'J	.	.	.	8cc-X'J	.	.
=44	=44	=44	=44	=44	=44	=44	=44	=44
2.D-]	.	2.G-X	.	4f-]	.	4b-	.	.
.	.	.	.	4f-X	.	8r	.	.
.	.	.	.	.	.	(16gg-XLL	.	.
.	.	.	.	.	.	16ff-XJJ)	.	.
.	.	.	.	4f-	.	8ee-'L	.	.
.	.	.	.	.	.	8ff-'J	.	.
=45	=45	=45	=45	=45	=45	=45	=45	=45
[2.E-	.	(4.G-X	.	[2.g-X	.	(4.aa-	.	VI6(6)
.	.	16A-LL	.	.	.	8gg-X)	.	VI6
.	.	16G-JJ)	.	.	.	.	.	.
.	.	8F'L	.	.	.	8ee-'L	.	.
.	.	8G-'J	.	.	.	8dd-'J	.	.
=46	=46	=46	=46	=46	=46	=46	=46	=46
4E-']	.	4G-X	.	4g-]	.	4cc	.	viio65/VII
!LO:TX:b:Bi:t=Cresc.	!	!LO:TX:b:Bi:t=Cresc.	!	!LO:TX:b:Bi:t=Cresc.	!	!	!	!
4E-'	.	4cc	.	4b--X'	.	8r	.	.
!	!	!	!	!	!	!LO:TX:b:Bi:t=Cresc.	!	!
.	.	.	.	.	.	(16aa-LL	.	.
.	.	.	.	.	.	16gg-XJJ)	.	.
4E-'	.	4cc	.	4b--'	.	8ff'L	.	.
.	.	.	.	.	.	8gg-'J	.	.
=47	=47	=47	=47	=47	=47	=47	=47	=47
2.F	sf	2.d	sf	2.cc-X	sf	2.aa-	sf	#viio65
=48	=48	=48	=48	=48	=48	=48	=48	=48
4G-X'	f	4e-'	f	4b-'	f	4gg-X'	f	i6
4A-'	.	4a-'	.	4cc-X'	.	4ff'	.	iio6
4AX'	.	4g-X'	.	4cc'	.	4ee-'	.	#viio7/V
=49	=49	=49	=49	=49	=49	=49	=49	=49
4B-	.	4f	.	4b-	.	16ddLL	.	V
.	.	.	.	.	.	16b-'	p	.
.	.	.	.	.	.	16cc'	.	.
.	.	.	.	.	.	16dd'JJ	.	.
4r	.	8r	.	8r	.	16ee-'LL	.	.
.	.	.	.	.	.	16ff'	.	.
.	.	8d'L	p	8f'L	p	16gg'	.	.
.	.	.	.	.	.	16aaX'JJ	.	.
4r	.	8d'	.	8f'	.	16bb-'LL	.	.
.	.	.	.	.	.	16aa'	.	.
.	.	8e-'J	.	8g-X'J	.	16bb-'	.	V(64)
.	.	.	.	.	.	16aa'JJ	.	.
=50	=50	=50	=50	=50	=50	=50	=50	=50
16B-'LL	.	4d-	.	4f	.	4bb-	.	V
16BB-'	.	.	.	.	.	.	.	.
16C'	.	.	.	.	.	.	.	.
16D-'JJ	.	.	.	.	.	.	.	.
16E-'LL	.	8r	.	8r	.	8r	.	.
16F'	.	.	.	.	.	.	.	.
16G'	.	8b-'L	.	8ff'L	.	8ddd'L	.	.
16AX'JJ	.	.	.	.	.	.	.	.
16B-'LL	.	8b-'	.	8ff'	.	8ddd'	.	.
16A'	.	.	.	.	.	.	.	.
16B-'	.	8b-'J	.	8gg-X'J	.	8eee-'J	.	V(64)
16A'JJ	.	.	.	.	.	.	.	.
=51	=51	=51	=51	=51	=51	=51	=51	=51
4B-	.	4b-	.	4ff	.	16dddLL	.	V
.	.	.	.	.	.	16b-	.	.
.	.	.	.	.	.	16cc	.	.
.	.	.	.	.	.	16ddJJ	.	.
4r	.	8r	.	8r	.	16ee-LL	.	.
.	.	.	.	.	.	16ff	.	.
.	.	8d'L	.	8f'L	.	16gg	.	.
.	.	.	.	.	.	16aaXJJ	.	.
4r	.	8d'	.	8f'	.	16bb-LL	.	.
.	.	.	.	.	.	16aa	.	.
.	.	8e-'J	.	8g-X'J	.	16bb-	.	V(64)
.	.	.	.	.	.	16aaJJ	.	.
=52	=52	=52	=52	=52	=52	=52	=52	=52
16B-LL	.	4d	.	4f	.	4bb-	.	V
16BB-	.	.	.	.	.	.	.	.
16C	.	.	.	.	.	.	.	.
16DJJ	.	.	.	.	.	.	.	.
16E-LL	.	8r	.	8r	.	8r	.	.
16F	.	.	.	.	.	.	.	.
16G	.	8b-L	.	8ffL	.	8dddL	.	.
16AXJJ	.	.	.	.	.	.	.	.
16B-LL	.	8b-	.	8ff	.	8ddd	.	.
16A	.	.	.	.	.	.	.	.
16B-	.	8b-J	.	8gg-XJ	.	8eee-J	.	V(64)
16AJJ	.	.	.	.	.	.	.	.
=53	=53	=53	=53	=53	=53	=53	=53	=53
4B-	.	4b-	.	4ff	.	16dddLL	.	V
!	!	!	!	!	!	!LO:TX:b:Bi:t=Cresc.	!	!
.	.	.	.	.	.	16B-	.	.
.	.	.	.	.	.	16c	.	.
.	.	.	.	.	.	16dJJ	.	.
8r	.	8r	.	8r	.	16e-LL	.	.
.	.	.	.	.	.	16f	.	.
!LO:TX:b:Bi:t=Cresc.	!	!LO:TX:b:Bi:t=Cresc.	!	!LO:TX:b:Bi:t=Cresc.	!	!	!	!
8B-L	.	8dL	.	8ffL	.	16g	.	.
.	.	.	.	.	.	16aXJJ	.	.
8B-	.	8d	.	8ff	.	16b-LL	.	.
.	.	.	.	.	.	16aJJ	.	i
8E-J	.	8e-J	.	8gg-XJ	.	16b-LL	.	.
.	.	.	.	.	.	16b-JJ	.	.
=54	=54	=54	=54	=54	=54	=54	=54	=54
16B-LL	ff	16dLL	ff	16ffLL	ff	16b-LL	ff	V
16BB-	.	16B-	.	16B-	.	16b-	.	.
16C	.	16c	.	16c	.	16cc	.	.
16DJJ	.	16dJJ	.	16dJJ	.	16ddJJ	.	.
16E-LL	.	16e-LL	.	16e-LL	.	16ee-LL	.	.
16F	.	16f	.	16f	.	16ff	.	.
16G	.	16g	.	16g	.	16gg	.	.
16AXJJ	.	16aXJJ	.	16aXJJ	.	16aaXJJ	.	.
16B-LL	.	16b-LL	.	16b-LL	.	16bb-LL	.	.
16A	.	16a	.	16a	.	16aa	.	.
16B-	.	16b-	.	16b-	.	16bb-	.	.
16AJJ	.	16aJJ	.	16aJJ	.	16aaJJ	.	.
=55	=55	=55	=55	=55	=55	=55	=55	=55
4B-	.	4b-	.	4b-	.	8bb-	.	V\\
.	.	.	.	.	.	4bb-	.	.
4r	.	4r	.	4r	.	.	.	.
.	.	.	.	.	.	4bb-	.	V.V
4r	.	4r	.	4r	.	.	.	.
.	.	.	.	.	.	(8bb-	.	.
=56	=56	=56	=56	=56	=56	=56	=56	=56
!	!	!	!	!	!	!LO:TX:b:Bi:t=Decresc.	!	!
2.r	.	2.r	.	2.r	.	8bbX)	.	@none
.	.	.	.	.	.	4bb	.	.
.	.	.	.	.	.	4bb	.	.
.	.	.	.	.	.	(8bb	.	.
=57	=57	=57	=57	=57	=57	=57	=57	=57
2.r	.	2.r	.	2.r	.	8ccc)	p	ii
.	.	.	.	.	.	(8cccL	.	.
.	.	.	.	.	.	8aa-J)	.	.
.	.	.	.	.	.	(8aa-L	.	.
.	.	.	.	.	.	8ffJ)	.	.
.	.	.	.	.	.	(8ff	.	.
=58	=58	=58	=58	=58	=58	=58	=58	=58
2.r	.	4r	.	4r	.	8dd)	.	V
.	.	.	.	.	.	(8ddL	.	.
.	.	4r	.	4r	.	8b-J)	.	.
.	.	.	.	.	.	(8b-L	.	.
.	.	8a-'L	.	8b-'L	.	8ddJ)	.	V2
.	.	8a-J	p	[8b-J	p	(8dd	.	.
=59	=59	=59	=59	=59	=59	=59	=59	=59
2.r	.	8g	.	8b-]	.	8ee-)	.	I6
.	.	(8gL	.	(8b-L	.	(8ee-L	.	.
.	.	8fJ)	.	8ddJ)	.	8ffJ)	.	viio6
.	.	(8fL	.	(8ddL	.	(8ffL	.	.
.	.	8e-J)	.	8ee-J)	.	8ggJ)	.	I
.	.	8e-	.	(8ee-	.	(8gg	.	.
=60	=60	=60	=60	=60	=60	=60	=60	=60
2.r	.	2d	.	4gg	.	4bb-	.	viio(64)
.	.	.	.	4ff)	.	4aa-)	.	viio
.	.	8gL	.	4r	.	4r	.	@none
.	.	(8gJ	.	.	.	.	.	.
=61	=61	=61	=61	=61	=61	=61	=61	=61
2.r	.	8a-)	.	2.r	.	2.r	.	viio
.	.	(8a-L	.	.	.	.	.	.
.	.	8fJ)	.	.	.	.	.	.
.	.	(8fL	.	.	.	.	.	.
.	.	8dJ)	.	.	.	.	.	.
.	.	(8d	.	.	.	.	.	.
=62	=62	=62	=62	=62	=62	=62	=62	=62
2.r	.	8BX)	.	4r	.	4r	.	V65/vi
.	.	(8BL	.	.	.	.	.	.
.	.	8gJ)	.	4r	.	4r	.	.
.	.	(8gL	.	.	.	.	.	.
.	.	8fJ)	.	(4dd	.	(4bbX	.	viio64/vi
.	.	(8f	.	.	.	.	.	.
=63	=63	=63	=63	=63	=63	=63	=63	=63
2.r	.	8e-)	.	4gg	.	4ccc	.	vi6
.	.	(8e-L	.	.	.	.	.	.
.	.	8cJ)	.	4g	.	4eee-	.	vi
.	.	(8cL	.	.	.	.	.	.
.	.	8fJ)	.	[4ee-)	.	4aaX)	.	V7/V
.	.	(8f	.	.	.	.	.	.
=64	=64	=64	=64	=64	=64	=64	=64	=64
4r	.	8B-)	.	(4ee-]	.	(4ccc	.	V(94)
.	.	(8B-L	.	.	.	.	.	.
8r	.	8b-J)	.	8dd)	.	8bb-)	.	V\\
(8AXL	p	8r	.	8r	.	8r	.	@none
8B-	.	4r	.	4r	.	4r	.	.
8BXJ	.	.	.	.	.	.	.	.
=65	=65	=65	=65	=65	=65	=65	=65	=65
8c')	.	2.r	.	2.r	.	2.r	.	ii
(8cL	.	.	.	.	.	.	.	.
8A-J)	.	.	.	.	.	.	.	.
(8A-L	.	.	.	.	.	.	.	.
8FJ)	.	.	.	.	.	.	.	.
(8F	.	.	.	.	.	.	.	.
=66	=66	=66	=66	=66	=66	=66	=66	=66
8D)	.	4r	.	4r	.	4r	.	V
(8DL	.	.	.	.	.	.	.	.
8BB-J)	.	4r	.	4r	.	4r	.	.
(8BB-L	.	.	.	.	.	.	.	.
8DJ)	.	8B-L	.	8fL	.	8aa-L	.	V65
(8D	.	[8B-J	.	(8fJ	.	(8aa-J	.	.
=67	=67	=67	=67	=67	=67	=67	=67	=67
8E-)	.	8B-]	.	8g)	.	8gg)	.	I
(8E-L	.	(8b-L	.	(8ee-L	.	(8ggL	.	.
8FJ)	.	8a-J)	.	8ddJ)	.	8ffJ)	.	V43
(8FL	.	(8a-L	.	(8ddL	.	(8ffL	.	.
8GJ)	.	8gJ)	.	8b-J)	.	8ee-J)	.	I6
8G	.	8g	.	8b-	.	8ee-	.	.
=68	=68	=68	=68	=68	=68	=68	=68	=68
4.A-	.	4.f	.	4.cc-X	.	(4ee-	.	viio43(2)
.	.	.	.	.	.	8dd)	.	viio43\\
8r	.	8r	.	8r	.	8r	.	.
4r	.	4r	.	8b-L	.	4r	.	@none
.	.	.	.	(8b-J	.	.	.	.
=69	=69	=69	=69	=69	=69	=69	=69	=69
2.r	.	4r	.	8cc-X)	.	4r	.	viio7
.	.	.	.	(8cc-L	.	.	.	.
.	.	8cc-X	.	8a-J)	.	4r	.	.
.	.	(8cc-L	.	(8a-L	.	.	.	.
!	!	!	!	!	!	!LO:TX:b:Bi:t=Cresc.	!	!
.	.	8a-J)	.	8fJ)	.	([4ccc-X	.	.
.	.	(8a-	.	(8f	.	.	.	.
=70	=70	=70	=70	=70	=70	=70	=70	=70
2.r	.	8f)	.	8dL)	.	4ccc-]	.	.
!	!	!LO:TX:b:Bi:t=Cresc.	!	!LO:TX:b:Bi:t=Cresc.	!	!	!	!
.	.	(8fL	.	(8dJ	.	.	.	.
.	.	8g-XJ)	.	8e-)	.	4bb-	.	i
.	.	(8e-L	.	4gg	.	.	.	.
.	.	8AXJ)	.	.	.	4eee-)	.	#viio7/V
.	.	(8A	.	8gg-X'	.	.	.	.
=71	=71	=71	=71	=71	=71	=71	=71	=71
2.r	.	8B-)	.	(2gg-X	.	(2eee-	sf	V(b64)
.	.	(8B-L	.	.	.	.	.	.
.	.	8b-J)	.	.	.	.	.	.
.	.	(8b-L	.	.	.	.	.	.
.	.	8B-J)	.	8.aa-L	.	8.fffL	.	V7
.	.	8B-	.	.	.	.	.	.
.	.	.	.	16ffJk)	.	16dddJk)	.	.
=72	=72	=72	=72	=72	=72	=72	=72	=72
(4.bb-	.	8e-L	p	8ee-L	p	4eee-	.	I\\
.	.	8E-	.	8B-J 8g	.	.	.	.
.	.	8E-	.	8B-L 8g	.	4r	.	.
16cccLL	p	8E-	.	8B- 8g	.	.	.	.
16bb-JJ)	.	.	.	.	.	.	.	.
8aaX'L	.	8E-	.	8B- 8g	.	4r	.	.
8bb-'J	.	8E-J	.	8B-J 8g	.	.	.	.
=73	=73	=73	=73	=73	=73	=73	=73	=73
2.bb-	.	8E-L	.	8B-L 8g	.	(4.gg	.	I
.	.	8E-	.	8B- 8g	.	.	.	.
.	.	8E-	.	8B- 8g	.	.	.	.
.	.	8E-	.	8B- 8g	.	16aa-LL	p	.
.	.	.	.	.	.	16ggJJ)	.	.
.	.	8E-	.	8B- 8g	.	8ff'L	.	.
.	.	8E-J	.	8B-J 8g	.	8ee-'J	.	.
=74	=74	=74	=74	=74	=74	=74	=74	=74
(4.bb-	.	8FL	.	8B-L 8a-	.	4dd	.	V43
.	.	8F	.	8B- 8a-	.	.	.	.
.	.	8F	.	8B- 8a-	.	4r	.	.
16cccLL	.	8F	.	8B- 8a-	.	.	.	.
16bb-JJ)	.	.	.	.	.	.	.	.
8aaX'L	.	8F	.	8B- 8a-	.	4r	.	.
8bb-'J	.	8FJ	.	8B-J 8a-	.	.	.	.
=75	=75	=75	=75	=75	=75	=75	=75	=75
2.bb-	.	8FL 8B-	.	8dL	.	(4.aa-	.	.
.	.	8F 8B-	.	8d	.	.	.	.
.	.	8F 8B-	.	8d	.	.	.	.
.	.	8F 8B-	.	8d	.	16bb-LL	.	.
.	.	.	.	.	.	16aa-JJ)	.	.
.	.	8F 8B-	.	8d	.	8gg'L	.	.
.	.	8FJ 8B-	.	8dJ	.	8ff'J	.	.
=76	=76	=76	=76	=76	=76	=76	=76	=76
!	!	!LO:TX:b:Bi:t=Cresc.	!	!LO:TX:b:Bi:t=Cresc.	!	!	!	!
(4.bb-	.	8GL 8B-	.	8d-L	.	4eeX	.	#viio65/ii
.	.	8G 8B-	.	8d-	.	.	.	.
.	.	8G 8B-	.	8d-	.	4r	.	.
!LO:TX:b:Bi:t=Cresc.	!	!	!	!	!	!	!	!
16cccLL	.	8G 8B-	.	8d-	.	.	.	.
16bb-JJ)	.	.	.	.	.	.	.	.
8aaX'L	.	8G 8B-	.	8d-	.	4r	.	.
8bb-'J	.	8GJ 8B-	.	8d-J	.	.	.	.
=77	=77	=77	=77	=77	=77	=77	=77	=77
!	!	!	!LO:DY:a	!	!	!	!	!
2.ddd-	f	8GL	f f	8B-L 8b-	.	[4ddd-	f	viio
.	.	8G	.	8B- 8b-	.	.	.	.
.	.	8G	.	8B- 8b-	.	8ddd-L]	.	.
.	.	8G	.	8B- 8b-	.	(16cccL	.	.
.	.	.	.	.	.	16bb-JJ	.	.
.	.	8G	.	8B- 8b-	.	16aa-LL	.	.
.	.	.	.	.	.	16gg	.	.
.	.	8GJ	.	8B-J 8b-	.	16ff	.	.
.	.	.	.	.	.	16eeXJJ)	.	.
=78	=78	=78	=78	=78	=78	=78	=78	=78
!	!	!	!LO:DY:a	!	!LO:DY:a	!	!	!
4ccc'	fp	4A-'	fp fp	4c'	fp	16ff'LL	.	ii6
.	.	.	.	.	.	16cc'	.	.
.	.	.	.	.	.	16dd-'	.	.
.	.	.	.	.	.	16eeX'JJ	.	.
4A-'	.	4f'	.	4a-' 4cc	.	16ffLL	.	.
.	.	.	.	.	.	16gg'	.	.
.	.	.	.	.	.	16aa-'	.	.
.	.	.	.	.	.	16gg'JJ	.	.
4r	.	4r	.	4r	.	16ff'LL	.	.
.	.	.	.	.	.	16cc'	.	.
.	.	.	.	.	.	16dd-'	.	.
.	.	.	.	.	.	16ee'JJ	.	.
=79	=79	=79	=79	=79	=79	=79	=79	=79
2.r	.	2.r	.	2.r	.	16ffLL	.	.
.	.	.	.	.	.	16gg	.	.
.	.	.	.	.	.	16aa-	.	.
.	.	.	.	.	.	16ggJJ	.	.
.	.	.	.	.	.	16ffLL	.	.
.	.	.	.	.	.	16cc	.	.
.	.	.	.	.	.	16dd	.	.
.	.	.	.	.	.	16eeXJJ	.	.
.	.	.	.	.	.	16ffLL	.	.
.	.	.	.	.	.	16gg	.	.
.	.	.	.	.	.	16aa-	.	.
.	.	.	.	.	.	16ggJJ	.	.
=80	=80	=80	=80	=80	=80	=80	=80	=80
4r	.	4r	.	4r	.	16ffLL	.	.
.	.	.	.	.	.	16cc	.	.
.	.	.	.	.	.	16dd-	.	.
.	.	.	.	.	.	16eeXJJ	.	.
4r	.	4r	.	4r	.	16ffLL	.	.
.	.	.	.	.	.	16gg	.	.
.	.	.	.	.	.	16aa-	.	.
.	.	.	.	.	.	16ggJJ	.	.
16r	.	16r	.	16r	.	16ffLL	.	.
!LO:TX:b:Bi:t=Cresc.	!	!LO:TX:b:Bi:t=Cresc.	!	!	!	!	!	!
16CLL	.	16cLL	.	16cLL	.	16cc	.	.
!	!	!	!	!LO:TX:b:Bi:t=Cresc.	!	!LO:TX:b:Bi:t=Cresc.	!	!
16D	.	16d	.	16d	.	16dd-	.	.
16EXJJ	.	16eXJJ	.	16eXJJ	.	16eeJJ	.	.
=81	=81	=81	=81	=81	=81	=81	=81	=81
16FLL	.	16fLL	.	16fLL	.	16ffLL	.	.
16G	.	16g	.	16g	.	16gg	.	.
16A-	.	16a-	.	16a-	.	16aa-	.	.
16B-JJ	.	16b-JJ	.	16b-JJ	.	16bb-JJ	.	.
16cLL	.	16ccLL	.	16ccLL	.	16cccLL	.	.
16B-	.	16b-	.	16b-	.	16bb-	.	.
16A-	.	16a-	.	16a-	.	16aa-	.	.
16GJJ	.	16gJJ	.	16gJJ	.	16ggJJ	.	.
16FLL	.	16fLL	.	16fLL	.	16ffLL	.	.
16E-	.	16e-	.	16e-	.	16ee-	.	.
16D	.	16d	.	16c	.	16dd	.	.
16CJJ	.	16cJJ	.	16dJJ	.	16ccJJ	.	.
=82	=82	=82	=82	=82	=82	=82	=82	=82
!	!	!	!LO:DY:a	!	!	!	!	!
4.BB-	f	4.B-	f f	4.B-	.	2.b-	f	V
(16CLL	.	(16cLL	.	(16cLL	.	.	.	.
16DJJ	.	16dJJ	.	16dJJ	.	.	.	.
16E-LL	.	16e-LL	.	16e-LL	.	.	.	.
16F	.	16f	.	16f	.	.	.	.
16G	.	16g	.	16g	.	.	.	.
16AXJJ)	.	16aXJJ)	.	16aXJJ)	.	.	.	.
=83	=83	=83	=83	=83	=83	=83	=83	=83
8B-L	.	8b-L	.	8b-L	.	2.ffT	.	V7
8B-	.	8a-	.	8dd	.	.	.	.
8B-	.	8a-	.	8dd	.	.	.	.
8B-	.	8a-	.	8dd	.	.	.	.
8B-	.	8a-	.	8dd	.	.	.	.
8B-J	.	8a-J	.	8ddJ	.	.	.	.
.	.	.	.	.	.	16qqee-/LL	.	.
.	.	.	.	.	.	16qqff/JJ	.	.
=84	=84	=84	=84	=84	=84	=84	=84	=84
4E-'	.	4g'	fp	4ee-'	fp	4ee-'	fp	I\\
4r	.	(4.G	.	(4.B-	.	(4.e-	.	I6
4r	.	.	.	.	.	.	.	.
.	.	8F)	.	8B-)	.	8d)	.	V64
=85	=85	=85	=85	=85	=85	=85	=85	=85
2.r	.	(8FL	.	(8B-L	.	(8dL	.	.
.	.	8d)	.	8fJ)	.	8a-J)	.	viio
.	.	(8d	.	(8fL	.	(8a-L	.	.
.	.	8e-)	.	8e-J)	.	8gJ)	.	I
.	.	(8e-	.	(8e-L	.	(8gL	.	.
.	.	8A-J)	.	8e-J)	.	8ccJ)	.	IV
=86	=86	=86	=86	=86	=86	=86	=86	=86
2.r	.	(8A-L	.	(8e-L	.	(8ccL	.	.
.	.	8G)	.	8e-)	.	8b-J)	.	I6
.	.	(8G	.	(8e-	.	(8b-L	.	.
.	.	8g)	.	8b-)	.	8ee-J)	.	.
.	.	(8g	.	(8b-	.	(8ee-L	.	.
.	.	8fJ)	.	8a-J)	.	8ddJ)	.	viio6
=87	=87	=87	=87	=87	=87	=87	=87	=87
2.r	.	(8fL	.	(8a-L	.	(8ddL	.	.
.	.	8dJ)	.	8fJ)	.	8aa-J)	.	viio
.	.	4d	.	4f	.	4aa-	.	.
.	.	4r	.	4r	.	4r	.	.
=88	=88	=88	=88	=88	=88	=88	=88	=88
2.r	.	2.r	.	2.r	.	2.r	.	.
=89	=89	=89	=89	=89	=89	=89	=89	=89
2.e-	p	2.b-	p	2.ee-	p	(4.gg	p	I
!	!	!	!	!	!	!LO:TX:b:Bi:t=Cresc.	!	!
.	.	.	.	.	.	16aa-LL	.	.
.	.	.	.	.	.	16ggJJ)	.	.
.	.	.	.	.	.	8ff'L	.	.
.	.	.	.	.	.	8gg'J	.	.
=90	=90	=90	=90	=90	=90	=90	=90	=90
!LO:TX:b:Bi:t=Cresc.	!	!LO:TX:b:Bi:t=Cresc.	!	!LO:TX:b:Bi:t=Cresc.	!	!	!	!
([2.AX	fp	([2.f	fp	([2.ee-	fp	([2.ccc	fp	V65/V
=91	=91	=91	=91	=91	=91	=91	=91	=91
4A]	.	4f]	.	4ee-]	.	4ccc]	.	.
4B-')	.	4g')	.	4ee-')	.	4bb-')	.	V(64)
4BB-'	.	4f'	.	4a-'	.	4dd'	.	V7
=92	=92	=92	=92	=92	=92	=92	=92	=92
4E-'	.	4e-'	.	4g'	.	4ee-'	.	I\\
4r	.	(4.g	fp	(4.b-	fp	(4.ee-	fp	I6
4r	.	.	.	.	.	.	.	.
.	.	8f)	.	8a-)	.	8dd)	.	viio6
=93	=93	=93	=93	=93	=93	=93	=93	=93
2.r	.	(8fL	.	(8a-L	.	(8ddL	.	.
.	.	8d)	.	8f)	.	8aa-)	.	viio
.	.	(8d	.	(8f	.	(8aa-	.	.
.	.	8e-)	.	8g)	.	8gg)	.	I
.	.	(8e-	.	(8g	.	(8gg	.	.
.	.	8a-J)	.	8ee-J)	.	8cccJ)	.	IV
=94	=94	=94	=94	=94	=94	=94	=94	=94
2.r	.	(8a-L	.	(8ee-L	.	(8cccL	.	.
.	.	8g)	.	8ee-)	.	8bb-)	.	I6
.	.	(8g	.	(8ee-	.	(8bb-	.	.
.	.	8gg)	.	8bb-)	.	8eee-)	.	.
.	.	(8gg	.	(8bb-	.	(8eee-	.	.
.	.	8ffJ)	.	8aa-J)	.	8dddJ)	.	viio6
=95	=95	=95	=95	=95	=95	=95	=95	=95
2.r	.	(8ffL	.	(8aa-L	.	(8dddL	.	.
.	.	8ddJ)	.	8ffJ)	.	8aaa-J)	.	viio
.	.	4dd	.	4ff	.	4aaa-	.	.
.	.	4r	.	4r	.	4r	.	.
=96	=96	=96	=96	=96	=96	=96	=96	=96
2.r	.	2.r	.	2.r	.	2.r	.	.
=97	=97	=97	=97	=97	=97	=97	=97	=97
!	!	!	!LO:DY:a	!	!LO:DY:a	!	!	!
2.E-	sf	2.e-	sf sf	2.B-	sf	2.e- 2.g-X	.	i
=98	=98	=98	=98	=98	=98	=98	=98	=98
!	!	!	!LO:DY:a	!	!LO:DY:a	!	!	!
2.C-X	sf	2.c-X	sf sf	2.c-X	sf	2.e- 2.g-X	.	.bVI
=99	=99	=99	=99	=99	=99	=99	=99	=99
!	!	!	!LO:DY:a	!	!	!	!	!
2AAX	sf	2AX	sf sf	2c	.	2e- 2g-X	sf	#viio7/V
4AA-	sf	4A-	sf	4c	sf	4e- 4g-	sf	.Ger6/vi
=100	=100	=100	=100	=100	=100	=100	=100	=100
!	!	!	!LO:DY:a	!	!	!	!	!
4GG'	ff	4G	ff ff	4c'	.	4e- 4g	ff	vi64
4FF'	.	4c'	.	4f'	.	4a-'	.	ii
4BB-'	.	4A-'	.	4d'	.	4f'	.	V7
=101	=101	=101	=101	=101	=101	=101	=101	=101
(4.E-	p	8GL	p	8e-L	.	4e-'	.	I[I64
!	!	!	!LO:DY:a	!	!	!	!	!
.	.	8e-	p	8B- 8g	.	.	.	.
.	.	8e-	.	8B- 8g	.	4r	.	.
16FLL	.	8e-	.	8B- 8g	.	.	.	.
16E-JJ)	.	.	.	.	.	.	.	.
8D'L	.	8e-	.	8B- 8g	.	4r	.	.
8E-'J	.	8e-J	.	8B-J 8g	.	.	.	.
=102	=102	=102	=102	=102	=102	=102	=102	=102
4EE-	.	8e-L	.	8B-L 8g	.	4r	.	.
.	.	8e-	.	8B- 8g	.	.	.	.
4r	.	8e-	.	8B- 8g	.	4gg	p	.
.	.	8e-	.	8B- 8g	.	.	.	.
4r	.	8e-	.	8B- 8g	.	4ggt	.	.
.	.	8e-J	.	8B-J 8g	.	.	.	.
.	.	.	.	.	.	16qqff/LL	.	.
.	.	.	.	.	.	16qqgg/JJ	.	.
=103	=103	=103	=103	=103	=103	=103	=103	=103
(4.E-	.	8fL	.	8B-L 8a-	.	(4bb-	.	V7
.	.	8f	.	8B- 8a-	.	.	.	.
.	.	8f	.	8B- 8a-	.	4aa-)	.	.
16FLL	.	8f	.	8B- 8a-	.	.	.	.
16E-JJ)	.	.	.	.	.	.	.	.
8D'L	.	8f	.	8B- 8a-	.	4r	.	.
8E-'J	.	8fJ	.	8B-J 8a-	.	.	.	.
=104	=104	=104	=104	=104	=104	=104	=104	=104
4EE-	.	8fL	.	8B-L 8a-	.	4r	.	.
.	.	8f	.	8B- 8a-	.	.	.	.
4r	.	8f	.	8B- 8a-	.	4ddd	.	.
.	.	8f	.	8B- 8a-	.	.	.	.
4r	.	8f	.	8B- 8a-	.	4dddt	.	.
.	.	8fJ	.	8B-J 8a-	.	.	.	.
.	.	.	.	.	.	16qqccc/LL	.	.
.	.	.	.	.	.	16qqddd/JJ	.	.
=105	=105	=105	=105	=105	=105	=105	=105	=105
(16FLL	.	8e-L	.	8B-L 8g	.	(8eee-L	.	I64
16E-	.	.	.	.	.	.	.	.
16D	.	8e-	.	8B- 8g	.	8gggJ)	.	.
16E-JJ)	.	.	.	.	.	.	.	.
(16FLL	.	8e-	.	8B- 8g	.	4bb-	.	.
16E-	.	.	.	.	.	.	.	.
16D	.	8e-	.	8B- 8g	.	.	.	.
16E-JJ)	.	.	.	.	.	.	.	.
(16FLL	.	8e-	.	8B- 8g	.	4r	.	.
16E-	.	.	.	.	.	.	.	.
16D	.	8e-J	.	8B-J 8g	.	.	.	.
16E-JJ)	.	.	.	.	.	.	.	.
=106	=106	=106	=106	=106	=106	=106	=106	=106
4EE-	.	8e-L	.	8B-L 8g	.	(16aa-LL	.	.
.	.	.	.	.	.	16gg	.	.
.	.	8e-	.	8B- 8g	.	16ff	.	.
.	.	.	.	.	.	16ggJJ)	.	.
4r	.	8e-	.	8B- 8g	.	(16aa-LL	.	.
.	.	.	.	.	.	16gg	.	.
.	.	8e-	.	8B- 8g	.	16ff	.	.
.	.	.	.	.	.	16ggJJ)	.	.
4r	.	8e-	.	8B- 8g	.	(16aa-LL	.	.
.	.	.	.	.	.	16gg	.	.
.	.	8e-J	.	8B-J 8g	.	16ff	.	.
.	.	.	.	.	.	16ggJJ)	.	.
=107	=107	=107	=107	=107	=107	=107	=107	=107
(16FLL	.	8fL	.	8B-L 8a-	.	(4bb-	.	V7
16E-	.	.	.	.	.	.	.	.
16D	.	8f	.	8B- 8a-	.	.	.	.
16E-JJ)	.	.	.	.	.	.	.	.
(16FLL	.	8f	.	8B- 8a-	.	4aa-)	.	.
16E-	.	.	.	.	.	.	.	.
16D	.	8f	.	8B- 8a-	.	.	.	.
16E-JJ)	.	.	.	.	.	.	.	.
(16FLL	.	8f	.	8B- 8a-	.	4r	.	.
16E-	.	.	.	.	.	.	.	.
16D	.	8fJ	.	8B-J 8a-	.	.	.	.
16E-JJ)	.	.	.	.	.	.	.	.
=108	=108	=108	=108	=108	=108	=108	=108	=108
4EE-	.	8fL	.	8B-L 8a-	.	(16eee-LL	.	.
.	.	.	.	.	.	16ddd	.	.
.	.	8f	.	8B- 8a-	.	16ccc	.	.
.	.	.	.	.	.	16dddJJ)	.	.
4r	.	8f	.	8B- 8a-	.	(16eee-LL	.	.
.	.	.	.	.	.	16ddd	.	.
.	.	8f	.	8B- 8a-	.	16ccc	.	.
.	.	.	.	.	.	16dddJJ)	.	.
4r	.	8f	.	8B- 8a-	.	(16eee-LL	.	.
.	.	.	.	.	.	16ddd	.	.
.	.	8fJ	.	8B-J 8a-	.	16ccc	.	.
.	.	.	.	.	.	16dddJJ)	.	.
=109	=109	=109	=109	=109	=109	=109	=109	=109
4E-'	.	4e-'	.	4B-' 4g	.	16eee-'LL	.	I64
.	.	.	.	.	.	16ggg'	.	.
.	.	.	.	.	.	16fff'	.	.
.	.	.	.	.	.	16eee-'JJ	.	.
4E-'	.	4B-' 4g	.	4B-' 4g 4ee-	.	16ddd-'LL	.	I]
.	.	.	.	.	.	16ccc'	.	.
.	.	.	.	.	.	16bb-'	.	.
.	.	.	.	.	.	16aa-'JJ	.	.
4r	.	4r	.	4r	.	16gg'LL	.	.
.	.	.	.	.	.	16eee-'	.	.
.	.	.	.	.	.	16ddd-'	.	.
.	.	.	.	.	.	16ccc'JJ	.	.
=110	=110	=110	=110	=110	=110	=110	=110	=110
2.r	.	2.r	.	2.r	.	16bb-LL	.	I
!	!	!	!	!	!	!LO:TX:b:Bi:t=Cresc.	!	!
.	.	.	.	.	.	16aa-	.	.
.	.	.	.	.	.	16gg	.	.
.	.	.	.	.	.	16ffJJ	.	.
.	.	.	.	.	.	16ee-LL	.	.
.	.	.	.	.	.	16bb-	.	.
.	.	.	.	.	.	16aa-	.	.
.	.	.	.	.	.	16ggJJ	.	.
.	.	.	.	.	.	16ffLL	.	.
.	.	.	.	.	.	16ee-	.	.
.	.	.	.	.	.	16dd	.	.
.	.	.	.	.	.	16ccJJ	.	.
=111	=111	=111	=111	=111	=111	=111	=111	=111
4r	.	4r	.	4r	.	16b-LL	.	.
.	.	.	.	.	.	16gg	.	.
.	.	.	.	.	.	16ff	.	.
.	.	.	.	.	.	16ee-JJ	.	.
4r	.	4r	.	4r	.	16ddLL	.	.
.	.	.	.	.	.	16cc	.	.
.	.	.	.	.	.	16b-	.	.
.	.	.	.	.	.	16a-JJ	.	.
!LO:TX:b:Bi:t=Cresc.	!	!	!	!	!	!	!	!
16GLL	.	16GLL	.	16gLL	.	16gLL	.	.
!	!	!LO:TX:b:Bi:t=Cresc.	!	!LO:TX:b:Bi:t=Cresc.	!	!	!	!
16e-	.	16e-	.	16ee-	.	16ee-	.	.
16d	.	16d	.	16dd	.	16dd	.	.
16cJJ	.	16cJJ	.	16ccJJ	.	16ccJJ	.	.
=112	=112	=112	=112	=112	=112	=112	=112	=112
16B-LL	.	16B-LL	.	16b-LL	.	16b-LL	.	.
16A-	.	16A-	.	16a-	.	16a-	.	.
16G	.	16G	.	16g	.	16g	.	.
16FJJ	.	16FJJ	.	16fJJ	.	16fJJ	.	.
(16E-LL	.	(16E-LL	.	(16e-LL	.	(16e-LL	.	.
16D	.	16d	.	16d	.	16d	.	.
16E-	.	16e-	.	16e-	.	16e-	.	.
16DJJ	.	16d	.	16dJJ	.	16dJJ	.	.
16E-LL	.	16e-	.	16e-LL	.	16e-LL	.	.
16D	.	16d	.	16d	.	16d	.	.
16E-	.	16e-	.	16e-	.	16e-	.	.
16DJJ)	.	16dJJ)	.	16dJJ)	.	16dJJ)	.	.
=113	=113	=113	=113	=113	=113	=113	=113	=113
4E-'	f	4e-'	f	4e-'	f	4e-'	f	.
4EE-'	.	4G'	.	4B-'	.	4e-'	.	.
4EE-'	.	4G'	.	4B-'	.	4e-'	.	.
=114	=114	=114	=114	=114	=114	=114	=114	=114
4EE-'	.	4G'	.	4B-'	.	4e-'	.	I\\
4r	.	4r	.	4r	.	4r	.	.
4r	.	4r	.	4r	.	4r	.	.
=115:|!	=115:|!	=115:|!	=115:|!	=115:|!	=115:|!	=115:|!	=115:|!	=115:|!
4C	f	4c	f	4c 4cc	f	16ccc'LL	.	III.I
.	.	.	.	.	.	16ggg'	f	.
.	.	.	.	.	.	16fff'	.	.
.	.	.	.	.	.	16eeeX'JJ	.	.
4r	.	4r	.	4r	.	16ddd'LL	.	.
.	.	.	.	.	.	16ccc'	.	.
.	.	.	.	.	.	16bbX'	.	.
.	.	.	.	.	.	16aaX'JJ	.	.
4r	.	4r	.	4r	.	16gg'LL	.	.
.	.	.	.	.	.	16ccc'	.	.
.	.	.	.	.	.	16bb'	.	.
.	.	.	.	.	.	16aa'JJ	.	.
=116	=116	=116	=116	=116	=116	=116	=116	=116
2.r	.	2.r	.	2.r	.	16ggLL	.	.
.	.	.	.	.	.	16ff	.	.
.	.	.	.	.	.	16eeX	.	.
.	.	.	.	.	.	16ddJJ	.	.
.	.	.	.	.	.	16ccLL	.	.
.	.	.	.	.	.	16gg	.	.
.	.	.	.	.	.	16ff	.	.
.	.	.	.	.	.	16eeJJ	.	.
.	.	.	.	.	.	16ddLL	.	.
.	.	.	.	.	.	16cc	.	.
.	.	.	.	.	.	16bX	.	.
.	.	.	.	.	.	16aXJJ	.	.
=117	=117	=117	=117	=117	=117	=117	=117	=117
16GLL	.	16r	.	16r	.	16gLL	.	.
16c	.	16ccLL	.	16ccLL	.	16cc	.	.
16BX	.	16bX	.	16bX	.	16bX	.	.
16AXJJ	.	16aXJJ	.	16aXJJ	.	16aXJJ	.	.
16GLL	.	16gLL	.	16gLL	.	16gLL	.	.
16F	.	16f	.	16f	.	16f	.	.
16EX	.	16eX	.	16eX	.	16eX	.	.
16DJJ	.	16dJJ	.	16dJJ	.	16dJJ	.	.
(16CLL	.	(16cLL	.	(16cLL	.	(16cLL	.	.
16BBX	.	16BX	.	16BX	.	16BX	.	.
16C	.	16c	.	16c	.	16c	.	.
16BBJJ)	.	16BJJ)	.	16BJJ)	.	16BJJ)	.	.
=118	=118	=118	=118	=118	=118	=118	=118	=118
4C'	.	4c'	.	4c	.	4c'	.	.
4C'	.	4c'	.	4c'	.	4c'	.	.
4C'	.	4c'	.	(4c	.	(4c	.	.
=119	=119	=119	=119	=119	=119	=119	=119	=119
!	!	!	!LO:DY:a	!	!LO:DY:a	!	!	!
(4.D-	fp	(4.d-	fp fp	[2.d-)	fp	[2.d-)	.	IV.I
16E-LL	.	16e-LL	.	.	.	.	.	.
16D-JJ)	.	16d-JJ)	.	.	.	.	.	.
8C'L	.	8c'L	.	.	.	.	.	.
8D-'J	.	8d-'J	.	.	.	.	.	.
=120	=120	=120	=120	=120	=120	=120	=120	=120
2.AA-	.	2.A-	.	4d-']	.	16d-]	.	I64
.	.	.	.	.	.	16ffLL	.	.
.	.	.	.	.	.	16aa-	.	.
.	.	.	.	.	.	16ddd-JJ	.	.
.	.	.	.	4d-'	.	16fffLL	.	.
.	.	.	.	.	.	16ddd-	.	.
.	.	.	.	.	.	16fff	.	.
.	.	.	.	.	.	16ddd-JJ	.	.
.	.	.	.	4d-'	.	16fffLL	.	.
.	.	.	.	.	.	16ddd-	.	.
.	.	.	.	.	.	16fff	.	.
.	.	.	.	.	.	16ddd-JJ	.	.
=121	=121	=121	=121	=121	=121	=121	=121	=121
!	!	!	!LO:DY:a	!	!	!	!	!
(4.D-	fp	(4.d-	fp fp	[2.d-	.	4ggg-X	f	IV64
.	.	.	.	.	.	4r	.	.
16E-LL	.	16e-LL	.	.	.	.	.	.
16D-JJ)	.	16d-JJ)	.	.	.	.	.	.
8C'L	.	8c'L	.	.	.	4r	.	.
8D-'J	.	8d-'J	.	.	.	.	.	.
=122	=122	=122	=122	=122	=122	=122	=122	=122
2.BB-	.	2.B-	.	4d-]	.	16r	.	IV6
.	.	.	.	.	.	16gg-XLL	p	.
.	.	.	.	.	.	16bb-	.	.
.	.	.	.	.	.	16ddd-JJ	.	.
.	.	.	.	4d-'	.	16ggg-XLL	.	.
.	.	.	.	.	.	16ddd-	.	.
.	.	.	.	.	.	16ggg-	.	.
.	.	.	.	.	.	16ddd-JJ	.	.
.	.	.	.	4d-'	.	16ggg-LL	.	.
.	.	.	.	.	.	16ddd-	.	.
.	.	.	.	.	.	16ggg-	.	.
.	.	.	.	.	.	16ddd-JJ	.	.
=123	=123	=123	=123	=123	=123	=123	=123	=123
(2.B-	pp	([2.g-X	pp	(4.dd-	pp	4ggg-X	.	.
.	.	.	.	.	.	4r	.	.
.	.	.	.	16ee-LL	.	.	.	.
.	.	.	.	16dd-JJ)	.	.	.	.
.	.	.	.	8cc'L	.	4r	.	.
.	.	.	.	8dd-'J	.	.	.	.
=124	=124	=124	=124	=124	=124	=124	=124	=124
2.c)	.	2g-]	.	(2ee-	.	2.r	.	viio
.	.	4e-)	.	4g-X)	.	.	.	.
=125	=125	=125	=125	=125	=125	=125	=125	=125
2.r	.	2.r	.	2.r	.	(2eee-	pp	.
.	.	.	.	.	.	4gg-X)	.	.
=126	=126	=126	=126	=126	=126	=126	=126	=126
(2.d-	.	([2.b-	.	(4.ff	.	2.r	.	I
.	.	.	.	16ggLL	.	.	.	.
.	.	.	.	16ffJJ)	.	.	.	.
.	.	.	.	8eeX'L	.	.	.	.
.	.	.	.	8ff'J	.	.	.	.
=127	=127	=127	=127	=127	=127	=127	=127	=127
2.eX)	.	2b-]	.	(2gg	.	2.r	.	vi.#viio
.	.	4g)	.	4b-)	.	.	.	.
=128	=128	=128	=128	=128	=128	=128	=128	=128
2.r	.	2.r	.	2.r	.	(2ggg	pp	.
.	.	.	.	.	.	4bb-)	.	.
=129	=129	=129	=129	=129	=129	=129	=129	=129
(4.d-	f	2.r	.	2.r	.	2.r	.	#viio7
16e-LL	.	.	.	.	.	.	.	.
16d-JJ)	.	.	.	.	.	.	.	.
8c'L	.	.	.	.	.	.	.	.
8d-'J	.	.	.	.	.	.	.	.
=130	=130	=130	=130	=130	=130	=130	=130	=130
4EX'	.	(4.dd-	.	2.r	.	2.r	.	.
4F'	.	.	.	.	.	.	.	.
.	.	16ee-LL	f	.	.	.	.	.
.	.	16dd-JJ)	.	.	.	.	.	.
4F#X'	.	8cc'L	.	.	.	.	.	.
.	.	8dd-'J	.	.	.	.	.	.
=131	=131	=131	=131	=131	=131	=131	=131	=131
4G'	.	4eX'	.	4r	.	(4.ddd-	f	#viio7
4eX'	.	4g'	.	(4.dd-	f	.	.	.
.	.	.	.	.	.	16eee-LL	.	.
.	.	.	.	.	.	16ddd-JJ)	.	.
4f'	.	4a-'	.	.	.	8ccc'L	.	i
.	.	.	.	16ee-LL	.	8ddd-'J	.	.
.	.	.	.	16dd-JJ)	.	.	.	.
=132	=132	=132	=132	=132	=132	=132	=132	=132
4g'	.	4b-'	.	8cc'L	.	4eeX'	.	#viio65
.	.	.	.	8dd-'J	.	.	.	.
4g'	.	4b-'	.	4bb-'	.	4ggg'	.	.
4a-'	.	4cc'	.	4aa-'	.	4fff'	.	i6
=133	=133	=133	=133	=133	=133	=133	=133	=133
4b-'	.	4dd-'	.	[4gg	.	(8eeeXL	.	#viio43
.	.	.	.	.	.	16gggL	.	.
.	.	.	.	.	.	16fffJJ)	.	.
(4.b-	sf	(4.dd-	sf	8ggL]	sf	(4.eee	sf	.
.	.	.	.	16bb-L	.	.	.	.
.	.	.	.	16aa-JJ	.	.	.	.
.	.	.	.	8ggL	.	.	.	.
8a-)	.	8cc)	.	8ffJ	.	8fff)	.	i6
=134	=134	=134	=134	=134	=134	=134	=134	=134
4b-'	.	4dd-'	.	([4gg	.	(8eeeXL	.	#viio43
.	.	.	.	.	.	16gggL	.	.
.	.	.	.	.	.	16fffJJ)	sf	.
(4.b-	sf	(4.dd-	sf	8ggL]	sf	(4.eee	.	.
.	.	.	.	16bb-L	.	.	.	.
.	.	.	.	16aa-JJ)	.	.	.	.
.	.	.	.	(8ggL	.	.	.	.
8a-)	.	8cc)	.	8ffJ)	.	8fff)	.	i6
=135	=135	=135	=135	=135	=135	=135	=135	=135
2.r	.	2.r	.	[4gg-X	f	2.r	.	@none
.	.	.	.	8gg-L]	.	.	.	.
.	.	.	.	16aa-L	.	.	.	.
.	.	.	.	16gg-JJ	.	.	.	.
.	.	.	.	8ff'L	.	.	.	.
.	.	.	.	8gg-'J	.	.	.	.
=136	=136	=136	=136	=136	=136	=136	=136	=136
(4.g-X	f	2.r	.	4aX'	.	2.r	.	@none
.	.	.	.	4b-'	.	.	.	.
16a-LL	.	.	.	.	.	.	.	.
16g-JJ)	.	.	.	.	.	.	.	.
8f'L	.	.	.	4bX'	.	.	.	.
8g-'J	.	.	.	.	.	.	.	.
=137	=137	=137	=137	=137	=137	=137	=137	=137
4AX'	.	4r	.	4cc'	.	(4.ggg-X	f	VI6
4B-'	.	(4.g-X	f	4dd-'	.	.	.	.
.	.	.	.	.	.	16aaa-LL	.	.
.	.	.	.	.	.	16ggg-JJ)	.	.
4BX'	.	.	.	4dd'	.	8fff'L	.	V65/ii
.	.	16a-LL	.	.	.	8ggg-'J	.	.
.	.	16g-JJ)	.	.	.	.	.	.
=138	=138	=138	=138	=138	=138	=138	=138	=138
4c'	.	8f'L	.	4ee-'	.	4aaX'	.	#viio65
.	.	8g-X'J	.	.	.	.	.	.
4c'	.	4e-'	.	4ccc'	.	4eee-'	.	.
4d-'	.	4f'	.	4bb-'	.	4ddd-'	.	i6
=139	=139	=139	=139	=139	=139	=139	=139	=139
([4e-	.	([4g-X	.	(8aaXL	.	(8cccL	.	#viio43
.	.	.	.	16cccL	.	16eee-L	.	.
.	.	.	.	16bb-JJ)	.	16ddd-JJ)	.	.
8e-L]	sf	8g-L]	sf	(4.aa	sf	(4.ccc	sf	.
16cL	.	16e-L	.	.	.	.	.	.
16d-JJ)	.	16fJJ)	.	.	.	.	.	.
(8e-L	.	(8g-L	.	.	.	.	.	.
8d-J)	.	8fJ)	.	8bb-)	.	8ddd-)	.	i6
=140	=140	=140	=140	=140	=140	=140	=140	=140
[4e-	.	[4g-X	.	8aaXL	.	8cccL	.	#viio43
.	.	.	.	16cccL	.	16eee-L	.	.
.	.	.	.	16bb-JJ	.	16ddd-JJ	.	.
8e-L]	sf	8g-L]	sf	4.aa	sf	4.ccc	sf	.
16cL	.	16e-L	.	.	.	.	.	.
16d-JJ	.	16fJJ	.	.	.	.	.	.
8e-L	.	8g-L	.	.	.	.	.	.
8d-J	.	8fJ	.	8bb-	.	8ddd-	.	i6
=141	=141	=141	=141	=141	=141	=141	=141	=141
2.r	.	(4.cc-X	f	2.r	.	2.r	.	@none
.	.	16dd-LL	.	.	.	.	.	.
.	.	16cc-JJ)	.	.	.	.	.	.
.	.	8b-'L	.	.	.	.	.	.
.	.	8cc-'J	.	.	.	.	.	.
=142	=142	=142	=142	=142	=142	=142	=142	=142
(4.c-X	f	4d'	.	2.r	.	2.r	.	V2/ii
.	.	4e-'	.	.	.	.	.	.
16d-LL	.	.	.	.	.	.	.	.
16c-JJ)	.	.	.	.	.	.	.	.
8B-'L	.	4eX'	.	.	.	.	.	.
8c-'J	.	.	.	.	.	.	.	.
=143	=143	=143	=143	=143	=143	=143	=143	=143
4D'	.	4f'	.	4r	.	(4.ccc-X	f	VI6
4E-'	.	4g-X'	.	(4.cc-X	.	.	.	.
.	.	.	.	.	.	16ddd-LL	.	.
.	.	.	.	.	.	16ccc-JJ)	.	.
4EX'	.	4g'	.	.	.	8bb-'L	.	#viio/ii
.	.	.	.	16dd-LL	f	8ccc-'J	.	.
.	.	.	.	16cc-JJ)	.	.	.	.
=144	=144	=144	=144	=144	=144	=144	=144	=144
4F	.	4a-'	.	8b-'L	.	4dd'	.	V43
.	.	.	.	8cc-X'J	.	.	.	.
4a-'	.	4cc-X'	.	4ff'	.	4ccc-X'	.	iio6
4g-X'	.	4b-'	.	4ee-'	.	4ccc-'	.	VIM43
=145	=145	=145	=145	=145	=145	=145	=145	=145
(8fL	.	(8a-L	.	(8ddL	.	((4ccc-X	.	#viio65
16a-L	.	16cc-XL	.	16ffL	.	.	.	.
16g-XJJ)	.	16b-JJ)	.	16ee-JJ)	.	.	.	.
(4.f	sf	(4.a-	sf	(4.dd	sf	8cccL)	sf	.
.	.	.	.	.	.	16aa-L	.	.
.	.	.	.	.	.	16bb-JJ)	.	.
.	.	.	.	.	.	(8ccc-XL	.	.
8g-)	.	8b-)	.	8ee-)	.	8bb-J)	.	i6
=146	=146	=146	=146	=146	=146	=146	=146	=146
(8fL	.	(8a-L	.	(8ddL	.	([4ccc-X	.	#viio65
16a-L	.	16cc-XL	.	16ffL	.	.	.	.
16g-XJJ)	.	16b-JJ)	.	16ee-JJ)	.	.	.	.
(4.f	sf	(4.a-	sf	(4.dd	sf	8ccc-L]	sf	.
.	.	.	.	.	.	16aa-L	.	.
.	.	.	.	.	.	16bb-JJ)	.	.
.	.	.	.	.	.	(8ccc-L	.	.
8g-)	.	8b-)	.	8ee-)	.	8bb-J)	.	i6
=147	=147	=147	=147	=147	=147	=147	=147	=147
2.r	.	(8dd-L	.	(8ff-XL	.	4r	.	i.#viio43
.	.	16b-L	.	16dd-L	.	.	.	.
.	.	16cc-XJJ)	.	16ee-JJ)	.	.	.	.
.	.	(4.dd-	sf	(4.ff-	sf	(8gggL	sf	.
.	.	.	.	.	.	16bbb-L	.	.
.	.	.	.	.	.	16aaa-JJ)	.	.
.	.	.	.	.	.	(8gggL	.	.
.	.	8cc-)	.	8ee-)	.	8aaa-J)	.	i6
=148	=148	=148	=148	=148	=148	=148	=148	=148
2.r	.	(8dd-L	.	(8ff-XL	.	4r	.	#viio43
.	.	16b-L	.	16dd-L	.	.	.	.
.	.	16cc-XJJ)	.	16ee-JJ)	.	.	.	.
.	.	(4.dd-	sf	(4.ff-	sf	(8gggL	sf	.
.	.	.	.	.	.	16bbb-L	.	.
.	.	.	.	.	.	16aaa-JJ)	.	.
.	.	.	.	.	.	(8gggL	.	.
.	.	8cc-)	.	8ee-)	.	8aaa-J)	.	i6
=149	=149	=149	=149	=149	=149	=149	=149	=149
(8g-XL	.	(8b--XL	.	(8ee-L	.	([4ccc	.	iv.viio43
16e-L	.	16g-XL	.	16gg-XL	.	.	.	.
16f-XJJ)	.	16a-JJ)	.	16ff-XJJ)	.	.	.	.
(4.g-	sf	(4.b--	sf	(4.ee-	sf	8cccL]	sf	.
.	.	.	.	.	.	16eee-L	.	.
.	.	.	.	.	.	16ddd-JJ)	.	.
.	.	.	.	.	.	(8cccL	.	.
8f-)	.	8a-)	.	8dd-)	.	8ddd-J)	.	i6
=150	=150	=150	=150	=150	=150	=150	=150	=150
(8g-XL	.	(8b--XL	.	(8ee-L	.	([4ccc	.	viio43
16e-L	.	16g-XL	.	16gg-XL	.	.	.	.
16f-XJJ)	.	16a-JJ)	.	16ff-XJJ)	.	.	.	.
(4.g-	sf	(4.b--	.	(4.ee-	.	8cccL]	sf	.
.	.	.	.	.	.	16eee-L	.	.
.	.	.	.	.	.	16ddd-JJ)	.	.
.	.	.	.	.	.	(8cccL	.	.
8f-)	.	8a-)	sf	8dd-)	sf	8ddd-J)	.	i6
=151	=151	=151	=151	=151	=151	=151	=151	=151
4D-	fp	8d-L	fp	8f-XL	fp	([4fff-X	fp	i
.	.	8d-	.	8f-	.	.	.	.
4r	.	8d-	.	8f-	.	8fff-L]	.	.
.	.	8d-	.	8f-	.	16ggg-XL	.	.
.	.	.	.	.	.	16fff-JJ)	.	.
4r	.	8d-	.	8f-	.	8eee-'L	.	.
.	.	8d-J	.	8f-J	.	8fff-'J	.	.
=152	=152	=152	=152	=152	=152	=152	=152	=152
2.r	.	8d-L	.	8f-XL	.	([4ddd-	.	.
.	.	8d-	.	8f-	.	.	.	.
.	.	8d-	.	8f-	.	8ddd-L]	.	.
.	.	8d-	.	8f-	.	16eee-L	.	.
.	.	.	.	.	.	16ddd-JJ)	.	.
.	.	8d-	.	8f-	.	8ccc'L	.	.
.	.	8d-J	.	8f-J	.	8ddd-'J	.	.
=153	=153	=153	=153	=153	=153	=153	=153	=153
2.r	.	8d-L	.	8f-XL	.	([4aa-	.	.
.	.	8d-	.	8f-	.	.	.	.
.	.	8d-	.	8f-	.	8aa-L]	.	.
.	.	8d-	.	8f-	.	16bb--XL	.	.
.	.	.	.	.	.	16aa-JJ)	.	.
.	.	8d-	.	8f-	.	8gg'L	.	.
.	.	8d-J	.	8f-J	.	8aa-'J	.	.
=154	=154	=154	=154	=154	=154	=154	=154	=154
2.r	.	8d-L	.	8f-XL	.	([4ff-X	.	.
.	.	8d-	.	8f-	.	.	.	.
.	.	8d-	.	8f-	.	8ff-L]	.	.
.	.	8d-	.	8f-	.	16gg-XL	.	.
.	.	.	.	.	.	16ff-JJ)	.	.
.	.	8d-	.	8f-	.	8ee-'L	.	.
.	.	8d-J	.	8f-J	.	8ff-'J	.	.
=155	=155	=155	=155	=155	=155	=155	=155	=155
2.B--X	fp	8d-L	fp	([4bb--X	fp	8f-XL	fp	VI
.	.	8d-	.	.	.	8f-	.	.
.	.	8d-	.	8bb--L]	.	8f-	.	.
.	.	8d-	.	16ccc-XL	.	8f-	.	.
.	.	.	.	16bb--JJ)	.	.	.	.
.	.	8d-	.	8aa-'L	.	8f-	.	.
.	.	8d-J	.	8bb--'J	.	8f-J	.	.
=156	=156	=156	=156	=156	=156	=156	=156	=156
2.F-X	.	8d-L	.	([4ff-X	.	8f-XL	.	i6
.	.	8d-	.	.	.	8f-	.	.
.	.	8d-	.	8ff-L]	.	8f-	.	.
.	.	8d-	.	16gg-XL	.	8f-	.	.
.	.	.	.	16ff-JJ)	.	.	.	.
.	.	8d-	.	8ee-'L	.	8f-	.	.
.	.	8d-J	.	8ff-'J	.	8f-J	.	.
=157	=157	=157	=157	=157	=157	=157	=157	=157
2.D-	.	8d-L	.	([4dd-	.	8f-XL	.	i
.	.	8d-	.	.	.	8f-	.	.
.	.	8d-	.	8dd-L]	.	8f-	.	.
.	.	8d-	.	16ee--XL	.	8f-	.	.
.	.	.	.	16dd-JJ)	.	.	.	.
.	.	8d-	.	8cc'L	.	8f-	.	.
.	.	8d-J	.	8dd-'J	.	8f-J	.	.
=158	=158	=158	=158	=158	=158	=158	=158	=158
4BB--X'	.	8d-L	.	4b--X'	.	8f-XL	.	VI
.	.	8d-	.	.	.	8f-	.	.
4AA-'	.	8d-	.	4a-'	.	8f-	.	i64
.	.	8d-	.	.	.	8f-	.	.
4GG'	.	8d-	.	4g'	.	8e-	.	V65/V
.	.	8d-J	.	.	.	8e-J	.	.
=159	=159	=159	=159	=159	=159	=159	=159	=159
!	!	!	!LO:DY:a	!	!	!	!	!
4AA-	fp	8c-XL	fp fp	8e-L	.	([4aa-	fp	i.i
.	.	8c-	.	8e-	.	.	.	.
4r	.	8c-	.	8e-	.	8aa-L]	.	.
.	.	8c-	.	8e-	.	16bb-L	.	.
.	.	.	.	.	.	16aa-JJ)	.	.
4r	.	8c-	.	8e-	.	8gg'L	.	.
.	.	8c-J	.	8e-J	.	8aa-'J	.	.
=160	=160	=160	=160	=160	=160	=160	=160	=160
2.r	.	8c-XL	.	8e-L	.	([4ee-	.	i6
.	.	8c-	.	8e-	.	.	.	.
.	.	8c-	.	8e-	.	8ee-L]	.	.
.	.	8c-	.	8e-	.	16ff-XL	.	.
.	.	.	.	.	.	16ee-JJ)	.	.
.	.	8c-	.	8e-	.	8dd'L	.	.
.	.	8c-J	.	8e-J	.	8ee-'J	.	.
=161	=161	=161	=161	=161	=161	=161	=161	=161
2.r	.	8c-XL	.	8e-L	.	([4cc-X	.	.
.	.	8c-	.	8e-	.	.	.	.
.	.	8c-	.	8e-	.	8cc-L]	.	.
.	.	8c-	.	8e-	.	16dd-L	.	.
.	.	.	.	.	.	16cc-JJ)	.	.
.	.	8c-	.	8e-	.	8b-'L	.	.
.	.	8c-J	.	8e-J	.	8cc-'J	.	.
=162	=162	=162	=162	=162	=162	=162	=162	=162
2.r	.	8c-XL	.	8e-L	.	([4a-	.	.
.	.	8c-	.	8e-	.	.	.	.
.	.	8c-	.	8e-	.	8a-L]	.	.
.	.	8c-	.	8e-	.	16b-L	.	.
.	.	.	.	.	.	16a-JJ)	.	.
.	.	8c-	.	8e-	.	8g'L	.	.
.	.	8c-J	.	8e-J	.	8a-'J	.	.
=163	=163	=163	=163	=163	=163	=163	=163	=163
2.F-X	fp	8c-XL	fp	([4ff-X	fp	8a-L	fp	VI
.	.	8c-	.	.	.	8a-	.	.
.	.	8c-	.	8ff-L]	.	8a-	.	.
.	.	8c-	.	16gg-XL	.	8a-	.	.
.	.	.	.	16ff-JJ)	.	.	.	.
.	.	8c-	.	8ee-'L	.	8a-	.	.
.	.	8c-J	.	8ff-'J	.	8a-J	.	.
=164	=164	=164	=164	=164	=164	=164	=164	=164
2.C-X	.	8c-XL	.	([4cc-X	.	8a-L	.	i6
.	.	8c-	.	.	.	8a-	.	.
.	.	8c-	.	8cc-L]	.	8a-	.	.
.	.	8c-	.	16dd-L	.	8a-	.	.
.	.	.	.	16cc-JJ)	.	.	.	.
.	.	8c-	.	8b-'L	.	8a-	.	.
.	.	8c-J	.	8cc-'J	.	8a-J	.	.
=165	=165	=165	=165	=165	=165	=165	=165	=165
2AA-	.	8c-XL	.	([4a-	.	8a-L	.	i
.	.	8c-	.	.	.	8a-	.	.
.	.	8c-	.	8a-L]	.	8a-	.	.
.	.	8c-	.	16b--XL	.	8a-	.	.
.	.	.	.	16a-JJ)	.	.	.	.
4FF-X'	.	8c-	.	8g-X'L	.	8a-	.	VI
.	.	8c-J	.	8a-'J	.	8a-J	.	.
=166	=166	=166	=166	=166	=166	=166	=166	=166
4F-X'	.	8c-XL	.	4f-X'	.	8a-L	.	.
.	.	8c-	.	.	.	8a-	.	.
4E-'	.	8c-	.	4e-'	.	8a-	.	i64
.	.	8c-	.	.	.	8a-	.	.
4D'	.	8c-	.	4d'	.	8a-	.	#viio7/V
.	.	8c-J	.	.	.	8a-J	.	.
=167	=167	=167	=167	=167	=167	=167	=167	=167
4EE- 4E-	.	4B-	.	4e-'	.	16g'	.	I.V
.	.	.	.	.	.	16eee-'LL	.	.
.	.	.	.	.	.	16ddd'	.	.
.	.	.	.	.	.	16ccc'JJ	.	.
!	!	!	!LO:DY:a	!	!	!	!	!
8r	.	[2e-	sf sf	[2B- [2g	.	16bb-'LL	.	.
.	.	.	.	.	.	16aa-'	.	.
8E-L	sf	.	.	.	.	16gg'	.	.
.	.	.	.	.	.	16ff'JJ	.	.
8E-	.	.	.	.	.	[4ee-	.	.
8E-J	.	.	.	.	.	.	.	.
=168	=168	=168	=168	=168	=168	=168	=168	=168
4GG	.	4e-]	.	4B-] 4g]	.	16ee-LL]	sf	V6
.	.	.	.	.	.	16eee-'	.	.
.	.	.	.	.	.	16ddd'	.	.
.	.	.	.	.	.	16ccc'JJ	.	.
!	!	!	!LO:DY:a	!	!	!	!	!
8r	.	[2e-	sf sf	[2B- [2g	.	16bb-'LL	.	.
.	.	.	.	.	.	16aa-'	.	.
8GL	sf	.	.	.	.	16gg'	.	.
.	.	.	.	.	.	16ff'JJ	.	.
8G	.	.	.	.	.	[4ee-	.	.
8GJ	.	.	.	.	.	.	.	.
=169	=169	=169	=169	=169	=169	=169	=169	=169
4BB-	.	4e-]	.	4B-] 4g]	.	16ee-LL]	sf	V64
.	.	.	.	.	.	16eee-'	.	.
.	.	.	.	.	.	16ddd'	.	.
.	.	.	.	.	.	16ccc'JJ	.	.
!	!	!	!LO:DY:a	!	!	!	!	!
8r	.	[2e-	sf sf	[2B- [2g	.	16bb-'LL	.	.
.	.	.	.	.	.	16aa-'	.	.
8B-L	sf	.	.	.	.	16gg'	.	.
.	.	.	.	.	.	16ff'JJ	.	.
8B-	.	.	.	.	.	16ee-'LL	.	.
.	.	.	.	.	.	16eee-'	.	.
8B-J	.	.	.	.	.	16ddd	.	.
.	.	.	.	.	.	16ccc'JJ	.	.
=170	=170	=170	=170	=170	=170	=170	=170	=170
4E-	.	4e-]	.	4B-] 4g]	.	16bb-LL	.	V
.	.	.	.	.	.	16aa-	.	.
.	.	.	.	.	.	16gg	.	.
.	.	.	.	.	.	16ffJJ	.	.
8r	.	4e-	.	4B- 4g	.	16ee-LL	.	.
.	.	.	.	.	.	16dd	.	.
8e-L	sf	.	.	.	.	16ff	.	.
.	.	.	.	.	.	16ee-JJ	.	.
8e-	.	4e-	.	4B- 4g	.	16ddLL	.	.
.	.	.	.	.	.	16ee-	.	.
8e-J	.	.	.	.	.	16ff	.	.
.	.	.	.	.	.	16ee-JJ	.	.
=171	=171	=171	=171	=171	=171	=171	=171	=171
16EE-'LL	.	4e-	.	4B- 4g	.	4dd-	.	V7
16E-	.	.	.	.	.	.	.	.
16D	.	.	.	.	.	.	.	.
16CJJ	.	.	.	.	.	.	.	.
!	!LO:DY:a	!	!	!	!	!	!	!
16BB-LL	sf	[2E- [2e-	.	4r	.	[2gg	sf	.
16AA-	.	.	.	.	.	.	.	.
16GG	.	.	.	.	.	.	.	.
16FFJJ	.	.	.	.	.	.	.	.
[4EE-	sf	.	.	16r	.	.	.	.
.	.	.	.	16e-'LL	.	.	.	.
.	.	.	.	16f'	.	.	.	.
.	.	.	.	16g'JJ	.	.	.	.
=172	=172	=172	=172	=172	=172	=172	=172	=172
16EE-LL]	.	4E-] 4e-]	.	16a-'LL	.	4gg']	.	V
16E-	.	.	.	16b-'	.	.	.	.
16D	.	.	.	16cc'	.	.	.	.
16CJJ	.	.	.	16dd'JJ	.	.	.	.
16BB-LL	.	[2e- [2g	sf	[4ee-	.	[2bb-	sf	.
16AA-	.	.	.	.	.	.	.	.
16GG	.	.	.	.	.	.	.	.
16FFJJ	.	.	.	.	.	.	.	.
[4EE-	sf	.	.	16ee-LL]	sf	.	.	.
.	.	.	.	16e-	.	.	.	.
.	.	.	.	16f	.	.	.	.
.	.	.	.	16gJJ	.	.	.	.
=173	=173	=173	=173	=173	=173	=173	=173	=173
16EE-LL]	.	4e-] 4g]	.	16a-LL	.	4bb-']	.	.
16E-	.	.	.	16b-	.	.	.	.
16D	.	.	.	16cc	.	.	.	.
16CJJ	.	.	.	16ddJJ	.	.	.	.
16BB-LL	.	[2e- [2b-	sf	[4ee-	.	[2ddd-	sf	V7
16AA-	.	.	.	.	.	.	.	.
16GG	.	.	.	.	.	.	.	.
16FFJJ	.	.	.	.	.	.	.	.
16EE-LL	.	.	.	16ee-LL]	sf	.	.	.
16E-	.	.	.	16e-	.	.	.	.
16D	.	.	.	16f	.	.	.	.
16CJJ	.	.	.	16gJJ	.	.	.	.
=174	=174	=174	=174	=174	=174	=174	=174	=174
16BB-LL	.	4e-] 4b-]	.	16a-LL	.	4ddd-]	.	.
16AA-	.	.	.	16b-	.	.	.	.
16GG	.	.	.	16cc	.	.	.	.
16FFJJ	.	.	.	16ddJJ	.	.	.	.
16EE-LL	.	4e-' 4b-	.	16ee-LL	.	4ggg'	.	.
16E-	.	.	.	16e-	.	.	.	.
16D	.	.	.	16f	.	.	.	.
16CJJ	.	.	.	16gJJ	.	.	.	.
16BB-LL	.	4e-' 4b-	.	16a-LL	.	4bbb-'	.	.
16AA-	.	.	.	16b-	.	.	.	.
16GG	.	.	.	16cc	.	.	.	.
16FFJJ	.	.	.	16ddJJ	.	.	.	.
=175	=175	=175	=175	=175	=175	=175	=175	=175
8EE-L	.	2.e- 2.b-	sf	[2ee-	.	2.dddd-	sf	.
16FFL	.	.	.	.	.	.	.	.
16GGJJ	.	.	.	.	.	.	.	.
16AA-LL	.	.	.	.	.	.	.	.
16BB-	.	.	.	.	.	.	.	.
16C	.	.	.	.	.	.	.	.
16DJJ	.	.	.	.	.	.	.	.
[4E-	sf	.	.	8ee-L]	sf	.	.	.
.	.	.	.	16dd'L	.	.	.	.
.	.	.	.	16cc'JJ	.	.	.	.
=176	=176	=176	=176	=176	=176	=176	=176	=176
8E-L]	.	2.E- 2.e-	sf	16b-LL	.	2.gg	sf	V7
.	.	.	.	16a-	.	.	.	.
16E-L	.	.	.	16g	.	.	.	.
16FJJ	.	.	.	16fJJ	.	.	.	.
16GLL	.	.	.	[4e-	sf	.	.	.
16A-	.	.	.	.	.	.	.	.
16B-	.	.	.	.	.	.	.	.
16cJJ	.	.	.	.	.	.	.	.
[4d-	sf	.	.	8e-L]	.	.	.	.
.	.	.	.	16e-L	.	.	.	.
.	.	.	.	16fJJ	.	.	.	.
=177	=177	=177	=177	=177	=177	=177	=177	=177
8d-'L]	.	8E-L 8e-	.	(16gLL	.	2.bb-	sf	.
.	.	.	.	16a-	.	.	.	.
!LO:TX:b:Bi:t=Cresc.	!	!LO:TX:b:Bi:t=Cresc.	!	!LO:TX:b:Bi:t=Cresc.	!	!	!	!
8c'	.	8E- 8e-	.	16b-	.	.	.	.
.	.	.	.	16ccJJ)	.	.	.	.
8B-'	.	8E- 8e-	.	8dd-'L	.	.	.	.
8A-'	.	8E- 8e-	.	8cc'	.	.	.	.
8G'	.	8E- 8e-	.	8b-'	.	.	.	.
8F'J	.	8E-J 8e-	.	8a-'J	.	.	.	.
=178	=178	=178	=178	=178	=178	=178	=178	=178
!	!	!	!	!	!	!LO:TX:b:Bi:t=Cresc.	!	!
8E-L	.	8E-L 8e-	.	8gL	.	(16e-LL	.	V
.	.	.	.	.	.	16d	.	.
8F	.	8E- 8e-	.	8a-	.	16e-	.	.
.	.	.	.	.	.	16fJJ	.	.
8E-	.	8E- 8e-	.	8g	.	16gLL	.	.
.	.	.	.	.	.	16a-	.	.
8D-	.	8E- 8e-	.	8f	.	16b-	.	.
.	.	.	.	.	.	16ccJJ	.	.
8C	.	8E- 8e-	.	8e-	.	16dd-LL	.	.
.	.	.	.	.	.	16ee-	.	.
8BB-J	.	8E-J 8e-	.	8d-J	.	16ff	.	.
.	.	.	.	.	.	16ggJJ)	.	.
=179	=179	=179	=179	=179	=179	=179	=179	=179
!	!LO:DY:a	!	!LO:DY:a	!	!	!	!	!
(4.AA-	ff ff	(4.A-	ff	(4.c 4.a-	.	(4.aa-	ff	I
16BB-LL	.	16B-LL	.	16b-LL	.	16bb-LL	.	.
16AA-JJ)	.	16A-JJ)	.	16a-JJ)	.	16aa-JJ)	.	.
8GG'L	.	8G'L	.	8g'L	.	8gg'L	.	.
8AA-'J	.	8A-'J	.	8a-'J	.	8aa-'J	.	.
=180	=180	=180	=180	=180	=180	=180	=180	=180
4EE-	.	4E-	.	4e-	.	4ee-	.	V
4r	.	4r	.	4r	.	4r	.	.
4r	.	4r	.	4r	.	4r	.	.
=181	=181	=181	=181	=181	=181	=181	=181	=181
(4.AA-	.	(4.A-	.	(4.a-	.	(4.aa-	.	I
16BB-LL	.	16B-LL	.	16b-LL	.	16bb-LL	.	.
16AA-JJ)	.	16A-JJ)	.	16a-JJ)	.	16aa-JJ)	.	.
8GG'L	.	8G'L	.	8g'L	.	8gg'L	.	.
8AA-'J	.	8A-'J	.	8a-'J	.	8aa-'J	.	.
=182	=182	=182	=182	=182	=182	=182	=182	=182
4FF	.	4F	.	4f	.	4ff	.	IV6
4r	.	4r	.	4r	.	4r	.	.
4r	.	4r	.	4r	.	4r	.	.
=183	=183	=183	=183	=183	=183	=183	=183	=183
!	!	!	!LO:DY:a	!	!	!	!	!
(2.F	p < [[	(2.f	p p < [[	([2.dd-	<[	([4aa-	p <	.
.	.	.	.	.	.	8aa-L]	.	.
.	.	.	.	.	.	16bb-L	.	.
.	.	.	.	.	.	16aa-JJ)	.	.
.	.	.	.	.	.	8gg'L	.	.
.	.	.	.	.	.	8aa-'J	[[	.
=184	=184	=184	=184	=184	=184	=184	=184	=184
2.G	>]	[2.e-)	>]	2dd-]	>	(2bb-	>	V65
.	.	.	.	4b-)	]]	4dd-)	]]	.
=185	=185	=185	=185	=185	=185	=185	=185	=185
4A-	.	(4e-]	.	(2a-	.	(2cc	.	vi
4F	.	4f	.	.	.	.	.	.
4D-)	.	4B-)	.	8.dd-L	.	8.ffL	.	ii6
.	.	.	.	16b-Jk)	.	16dd-Jk)	.	.
=186	=186	=186	=186	=186	=186	=186	=186	=186
2.E-	.	(8e-L	.	(2a-	.	(2cc	.	V(64)
.	.	8d	.	.	.	.	.	.
.	.	8e-	.	.	.	.	.	.
.	.	8dJ	.	.	.	.	.	.
.	.	4e-)	.	4g)	.	4b-)	.	V\\
=187	=187	=187	=187	=187	=187	=187	=187	=187
2.r	.	2.r	.	[4dd-	.	2.r	.	@none
.	.	.	.	8dd-L]	p	.	.	.
.	.	.	.	16ee-L	.	.	.	.
.	.	.	.	16dd-JJ	.	.	.	.
.	.	.	.	8cc'L	.	.	.	.
.	.	.	.	8dd-'J	.	.	.	.
=188	=188	=188	=188	=188	=188	=188	=188	=188
2.r	.	(4.cc	.	(4.ee-	.	[2.aa-	p	I6
.	.	16dd-LL	p	16ff-XLL	.	.	.	.
.	.	16ccJJ	.	16ee-JJ	.	.	.	.
.	.	8b-'L	.	8dd-'L	.	.	.	.
.	.	8cc'J)	.	8ee-'J)	.	.	.	.
=189	=189	=189	=189	=189	=189	=189	=189	=189
2.r	.	(4dd-	.	2ff-X	.	(4aa-]	.	.bVI.vi
.	.	4b--X	.	.	.	[4ddd-)	.	IV
.	.	4g-X)	.	(8.bb--XL	.	(8.ddd-L]	.	ii
.	.	.	.	16gg-XJk)	.	16bb--XJk)	.	.
=190	=190	=190	=190	=190	=190	=190	=190	=190
2.r	.	4cc-X'	.	(2ff-X	.	(2aa-	.	V(64)
.	.	4c-X'	.	.	.	.	.	.
.	.	4r	.	4ee-)	.	4gg-X)	.	V
=191	=191	=191	=191	=191	=191	=191	=191	=191
(4F-X	p	(2f-X	.	(2a-	.	2.r	.	ii6
4D-	.	.	.	.	.	.	.	.
4BB--X)	.	8.b--XL	.	8.dd-L	.	.	.	.
.	.	16g-XJk)	.	16b--XJk)	.	.	.	.
=192	=192	=192	=192	=192	=192	=192	=192	=192
4C-X'	.	(2f-X	.	(2a-	.	2.r	.	V
4c-X'	.	.	.	.	.	.	.	.
4r	.	4e-)	.	4g-X)	.	.	.	.
=193	=193	=193	=193	=193	=193	=193	=193	=193
2.r	.	(4dd-	.	2dd-~	.	(2ff-X	.	IV
.	.	4b--X	.	.	.	.	.	.
.	.	4g-X)	.	4dd-'	.	8.bb--XL	.	ii
.	.	.	.	.	.	16gg-XJk)	.	.
=194	=194	=194	=194	=194	=194	=194	=194	=194
2.r	.	4a-'	.	(2dd-	.	(2ff-X	.	V(64)/vi
.	.	4A-'	.	.	.	.	.	.
.	.	4r	.	4cc)	.	4ee-)	.	V/vi
=195	=195	=195	=195	=195	=195	=195	=195	=195
(4d-	.	2d-	.	(2f-X	.	2.r	.	ii
4B--X	.	.	.	.	.	.	.	.
4G-X)	.	4d-	.	8.b--XL	.	.	.	.
.	.	.	.	16g-XJk)	.	.	.	.
=196	=196	=196	=196	=196	=196	=196	=196	=196
!LO:TX:b:Bi:t=Cresc.	!	!LO:TX:b:Bi:t=Cresc.	!	!LO:TX:b:Bi:t=Cresc.	!	!	!	!
(2.A-	.	(2.c-X	.	(2.f-X	.	4r	.	I6
!	!	!	!	!	!	!LO:TX:b:Bi:t=Cresc.	!	!
.	.	.	.	.	.	4ff-X	.	.
.	.	.	.	.	.	4ff-	.	.
=197	=197	=197	=197	=197	=197	=197	=197	=197
4F-X)	.	2.A-)	.	2.cc-X)	.	(8ff-XL	.	V7/IV
.	.	.	.	.	.	8ee--X	.	.
4FF-X	.	.	.	.	.	8dd-	.	.
.	.	.	.	.	.	8ee--	.	.
4FF-	.	.	.	.	.	8ff-	.	.
.	.	.	.	.	.	8ee--J)	.	.
=198	=198	=198	=198	=198	=198	=198	=198	=198
!	!LO:DY:a	!	!	!	!	!	!	!
[2.BB--X	p p	(4.F-X	.	4b--X	p	4dd-	p	.bII.I
.	.	.	.	4r	.	4r	.	.
.	.	16G-XLL	.	.	.	.	.	.
.	.	16F-JJ)	.	.	.	.	.	.
.	.	8E-'L	.	4r	.	4r	.	.
.	.	8F-'J	.	.	.	.	.	.
=199	=199	=199	=199	=199	=199	=199	=199	=199
2.BB--]	.	[2.F-X	.	4r	.	4r	.	I
.	.	.	.	4d-	.	8r	.	.
.	.	.	.	.	.	8dd-	.	.
.	.	.	.	4d-	.	4dd-T	.	.
.	.	.	.	.	.	16qqcc-X/LL	.	.
.	.	.	.	.	.	16qqdd-/JJ	.	.
=200	=200	=200	=200	=200	=200	=200	=200	=200
[2.C-X	.	(4.F-]	.	[2.e--X	.	(4.ff-X	.	V43
.	.	16G-XLL	.	.	.	8ee--XL)	.	.
.	.	16F-X'JJ)	.	.	.	.	.	.
.	.	8E-L	.	.	.	8cc-X'	.	.
.	.	8F-'J	.	.	.	8b--X'J	.	.
=201	=201	=201	=201	=201	=201	=201	=201	=201
2.C-]	.	([2.F-X	.	4e--]	.	4a-	.	.
.	.	.	.	4e--X	.	8r	.	.
.	.	.	.	.	.	8ee--X	.	.
.	.	.	.	4e--	.	4ee--t	.	.
.	.	.	.	.	.	16qqdd-/LL	.	.
.	.	.	.	.	.	16qqee--/JJ	.	.
=202	=202	=202	=202	=202	=202	=202	=202	=202
[2.D-	.	4.F-]	.	[2.f-X	.	(4.gg-X	.	I6(6)
.	.	16G-XLL	.	.	.	8ff-X)	.	I6
.	.	16F-XJJ)	.	.	.	.	.	.
.	.	8E-'L	.	.	.	8dd-'L	.	.
.	.	8F-J	.	.	.	8cc-X'J	.	.
=203	=203	=203	=203	=203	=203	=203	=203	=203
2.D-]	.	2.F-X	.	4f-]	.	4b--X	.	.
.	.	.	.	4f-X	.	8r	.	.
.	.	.	.	.	.	8bb--X	.	.
.	.	.	.	4f-	.	4bb--t	.	.
.	.	.	.	.	.	16qqaa-/LL	.	.
.	.	.	.	.	.	16qqbb-/JJ	.	.
=204	=204	=204	=204	=204	=204	=204	=204	=204
([2.AA-	.	(4.F-X	.	2cc-X	.	(4.ddd-	.	V6(6)
.	.	16G-XLL	.	.	.	8ccc-XL)	.	V6
.	.	16F-JJ)	.	.	.	.	.	.
.	.	8E-'L	.	8cc-'L	.	8ccc-'	.	.
.	.	8F-'J	.	8b--X'J	.	8bb--X'J	.	.
=205	=205	=205	=205	=205	=205	=205	=205	=205
4AA-]	.	2.F-X	.	(8b--XL	.	(8bb--XL	.	.
.	.	.	.	8a-)	.	8aa-J)	.	.
4C-X	.	.	.	8a-'	.	8aa-'L	.	.
.	.	.	.	8g-X'	.	8gg-X'	.	.
4FF-X)	.	.	.	8f-X'	.	8ff-X'	.	V7
.	.	.	.	8e--X'J	.	8ee--X'J	.	.
=206	=206	=206	=206	=206	=206	=206	=206	=206
!LO:TX:b:Bi:t=Cresc.	!	!LO:TX:b:Bi:t=Cresc.	!	!LO:TX:b:Bi:t=Cresc.	!	!LO:TX:b:Bi:t=Cresc.	!	!
(2.BB--X	.	(4.F-X	.	(4c	.	(4cc	.	I(#2)
.	.	.	.	4d-)	.	4dd-)	.	I
.	.	16G-XLL	.	.	.	.	.	.
.	.	16F-JJ)	.	.	.	.	.	.
.	.	8E-'L	.	4d-'	.	4dd-'	.	.
.	.	8F-'J	.	.	.	.	.	.
=207	=207	=207	=207	=207	=207	=207	=207	=207
2.AA-)	.	2.F-X	.	(4.d-	.	(4.dd-	.	i.iv64
.	.	.	.	16e-LL	.	16ee-LL	.	.
.	.	.	.	16d-JJ	.	16dd-JJ	.	.
.	.	.	.	8c'L	.	8cc'L	.	.
.	.	.	.	8d-'J)	.	8dd-'J)	.	.
=208	=208	=208	=208	=208	=208	=208	=208	=208
!	!LO:DY:a	!	!	!	!	!	!	!
2GG	f f	4.E-	.	2b-	f	2bb-	f	V65
.	.	(16f-XLL	.	.	.	.	.	.
.	.	16e-JJ)	.	.	.	.	.	.
4G'	.	8d'L	.	4b-'	.	4dd-'	.	.
.	.	8e-'J	.	.	.	.	.	.
=209	=209	=209	=209	=209	=209	=209	=209	=209
4A-'	.	4e-'	.	4e-'	.	4cc-X'	.	i
4G-X'	.	4B-'	.	4e-'	.	4b-'	.	v6
4F-X'	.	8c-X'L	.	4d'	.	4a-'	.	.Ger6
.	.	8A-'J	.	.	.	.	.	.
=210	=210	=210	=210	=210	=210	=210	=210	=210
4E-	.	4G	.	4B-	.	16ee-'LL	p	V
.	.	.	.	.	.	16e-'	.	.
.	.	.	.	.	.	16f'	.	.
.	.	.	.	.	.	16g'JJ	.	.
4r	.	8r	.	8r	.	16a-'LL	.	.
.	.	.	.	.	.	16b-'	.	.
.	.	8g'L	p	8b-'	p	16cc'	.	.
.	.	.	.	.	.	16dd'JJ	.	.
4r	.	8g'	.	8b-'L	.	16ee-LL	.	.
.	.	.	.	.	.	16dd'	.	.
.	.	8a-'J	.	8cc-X'J	.	16ee-'	.	i
.	.	.	.	.	.	16dd'JJ	.	.
=211	=211	=211	=211	=211	=211	=211	=211	=211
16r	.	4g	.	4b-	.	4ee-	.	V
16E-'LL	.	.	.	.	.	.	.	.
16F'	p	.	.	.	.	.	.	.
16G'JJ	.	.	.	.	.	.	.	.
16A-'LL	.	8r	.	8r	.	8r	.	.
16B-'	.	.	.	.	.	.	.	.
16c'	.	8e-'	.	8b-'L	.	8gg'L	.	.
16d'JJ	.	.	.	.	.	.	.	.
16e-'LL	.	8e-'L	.	8b-'	.	8gg'	.	.
16d'	.	.	.	.	.	.	.	.
16e-'	.	8e-'J	.	8cc-X'J	.	8aa-'J	.	i
16d'JJ	.	.	.	.	.	.	.	.
=212	=212	=212	=212	=212	=212	=212	=212	=212
4e-	.	4e-	.	4b-	.	16ggLL	.	V
.	.	.	.	.	.	16e-	.	.
.	.	.	.	.	.	16f	.	.
.	.	.	.	.	.	16gJJ	.	.
4r	.	8r	.	8r	.	16a-LL	.	.
.	.	.	.	.	.	16b-	.	.
.	.	8GL	.	8B-L	.	16cc	.	.
.	.	.	.	.	.	16ddJJ	.	.
4r	.	8G	.	8B-	.	16ee-LL	.	.
.	.	.	.	.	.	16dd	.	.
.	.	8A-J	.	8c-XJ	.	16ee-	.	i
.	.	.	.	.	.	16ddJJ	.	.
=213	=213	=213	=213	=213	=213	=213	=213	=213
16r	.	4G	.	4B-	.	4ee-	.	V
16E-LL	.	.	.	.	.	.	.	.
16F	.	.	.	.	.	.	.	.
16GJJ	.	.	.	.	.	.	.	.
16A-LL	.	8r	.	8r	.	8r	.	.
16B-	.	.	.	.	.	.	.	.
16c	.	8e-L	.	8b-L	.	8ggL	.	.
16dJJ	.	.	.	.	.	.	.	.
16e-LL	.	8e-	.	8b-	.	8gg	.	.
16d	.	.	.	.	.	.	.	.
16e-	.	8e-J	.	8cc-XJ	.	8aa-J	.	i
16dJJ	.	.	.	.	.	.	.	.
=214	=214	=214	=214	=214	=214	=214	=214	=214
!LO:TX:b:Bi:t=Cresc.	!	!LO:TX:b:Bi:t=Cresc.	!	!LO:TX:b:Bi:t=Cresc.	!	!LO:TX:b:Bi:t=Cresc.	!	!
4e-	.	4e-	.	4b-	.	16ggLL	.	V
.	.	.	.	.	.	16e-	.	.
.	.	.	.	.	.	16f	.	.
.	.	.	.	.	.	16gJJ	.	.
8r	.	8r	.	8r	.	16a-LL	.	.
.	.	.	.	.	.	16b-	.	.
8e-L	.	8b-L	.	8gg	.	16cc	.	.
.	.	.	.	.	.	16ddJJ	.	.
8e-	.	8b-	.	8ggL	.	16ee-LL	.	.
.	.	.	.	.	.	16dd	.	.
!	!	!	!LO:DY:a	!	!	!	!	!
8A-J	.	8cc-XJ	ff	8aa-J	.	16ee-	.	i
.	.	.	.	.	.	16ddJJ	.	.
=215	=215	=215	=215	=215	=215	=215	=215	=215
16e-LL	ff	16b-	ff	16ggLL	.	16ee-LL	ff	V
16EE-	.	16E-LL	.	16e-	.	16ee-	.	.
16FF	.	16F	.	16f	.	16ff	.	.
16GGJJ	.	16GJJ	.	16gJJ	.	16ggJJ	.	.
16AA-LL	.	16A-LL	.	16a-LL	.	16aa-LL	.	.
16BB-	.	16B-	.	16b-	.	16bb-	.	.
16C	.	16c	.	16cc	.	16ccc	.	.
16DJJ	.	16dJJ	.	16ddJJ	.	16dddJJ	.	.
16E-LL	.	16e-LL	.	16ee-LL	.	16eee-LL	.	.
16D	.	16d	.	16dd	.	16ddd	.	.
16E-	.	16e-	.	16ee-	.	16eee-	.	.
16DJJ	.	16dJJ	.	16ddJJ	.	16dddJJ	.	.
=216	=216	=216	=216	=216	=216	=216	=216	=216
4E-'	.	4e-	.	4ee-	.	8eee-	.	V\\
.	.	.	.	.	.	4eee-	.	I.V
4r	.	4r	.	4r	.	.	.	.
.	.	.	.	.	.	4eee-	.	.
4r	.	4r	.	4r	.	.	.	.
.	.	.	.	.	.	(8eee-	.	.
=217	=217	=217	=217	=217	=217	=217	=217	=217
!	!	!	!	!	!	!LO:TX:b:Bi:t=Decresc.	!	!
2.r	.	2.r	.	2.r	.	8eeeX)	.	@none
.	.	.	.	.	.	4eee	.	.
.	.	.	.	.	.	4eee	.	.
.	.	.	.	.	.	(8eee	.	.
=218	=218	=218	=218	=218	=218	=218	=218	=218
2.r	.	2.r	.	2.r	.	8fff)	p	ii
.	.	.	.	.	.	8fffL	.	.
.	.	.	.	.	.	8ddd-J	.	.
.	.	.	.	.	.	8ddd-L	.	.
.	.	.	.	.	.	8bb-J	.	.
.	.	.	.	.	.	(8bb-	.	.
=219	=219	=219	=219	=219	=219	=219	=219	=219
2.r	.	4r	.	4r	.	8gg)	.	V
.	.	.	.	.	.	(8ggL	.	.
.	.	4r	.	4r	.	8ee-J)	.	.
.	.	.	.	.	.	(8ee-L	.	.
.	.	8dd-L	p	8ee-L	p	8ggJ)	.	V2
.	.	(8dd-J	.	[8ee-J	.	(8gg	.	.
=220	=220	=220	=220	=220	=220	=220	=220	=220
2.r	.	8ccL)	.	8ee-]	.	8aa-)	.	I6
.	.	(8ccJ	.	(8ee-L	.	(8aa-L	.	.
.	.	8b-L)	.	8ggJ)	.	8bb-J)	.	V64
.	.	(8b-J	.	(8ggL	.	(8bb-L	.	.
.	.	8a-L)	.	8aa-J)	.	8cccJ)	.	I
.	.	(8a-J	.	(8aa-	.	(8ccc	.	.
=221	=221	=221	=221	=221	=221	=221	=221	=221
2.r	.	4.g)	.	4ccc	.	4eee-	.	viio(64)
.	.	.	.	8bb-)	.	8ddd-)	.	viio
.	.	8r	.	8r	.	8r	.	.
.	.	8ccL	.	4r	.	4r	.	@none
.	.	(8ccJ	.	.	.	.	.	.
=222	=222	=222	=222	=222	=222	=222	=222	=222
2.r	.	8dd-)	.	2.r	.	2.r	.	viio
.	.	(8dd-L	.	.	.	.	.	.
.	.	8b-J)	.	.	.	.	.	.
.	.	(8b-L	.	.	.	.	.	.
.	.	8gJ)	.	.	.	.	.	.
.	.	(8g	.	.	.	.	.	.
=223	=223	=223	=223	=223	=223	=223	=223	=223
2.r	.	8eXL)	.	4r	.	4r	.	V.V6/ii
.	.	(8eJ	.	.	.	.	.	.
.	.	8ccL)	.	4r	.	4r	.	.
.	.	(8ccJ	.	.	.	.	.	.
.	.	8b-L)	.	(4gg	.	(4eeeX	p	V2/ii
.	.	(8b-J	.	.	.	.	.	.
=224	=224	=224	=224	=224	=224	=224	=224	=224
2.r	.	8a-)	.	4aa-	.	4fff	.	ii6
.	.	(8a-L	.	.	.	.	.	.
.	.	8fJ)	.	4ccc	.	4aaa-	.	ii
.	.	(8fL	.	.	.	.	.	.
.	.	8b-J)	.	4ff)	.	4ddd)	.	V
.	.	(8b-	.	.	.	.	.	.
=225	=225	=225	=225	=225	=225	=225	=225	=225
4r	.	4.e-)	.	(4aa-	.	(4fff	.	I(94)
8r	.	.	.	8gg)	.	8eee-)	.	I\\
(8dL	.	8r	.	8r	.	8r	.	@none
8e-	.	4r	.	4r	.	4r	.	.
8eXJ	.	.	.	.	.	.	.	.
=226	=226	=226	=226	=226	=226	=226	=226	=226
8f')	.	2.r	.	2.r	.	2.r	.	I.ii
(8fL	.	.	.	.	.	.	.	.
8d-J)	.	.	.	.	.	.	.	.
(8d-L	.	.	.	.	.	.	.	.
8B-J)	.	.	.	.	.	.	.	.
8B-	.	.	.	.	.	.	.	.
=227	=227	=227	=227	=227	=227	=227	=227	=227
8G	.	4r	.	4r	.	4r	.	V
8GL	.	.	.	.	.	.	.	.
8E-J	.	4r	.	4r	.	4r	.	.
8E-L	.	.	.	.	.	.	.	.
8GJ	.	8b-L	.	8ee-L	.	8ddd-'L	.	V65
(8G	.	(8b-J	.	[8ee-J	.	(8ddd-J	.	.
=228	=228	=228	=228	=228	=228	=228	=228	=228
8A-)	.	8a-)	.	8ee-]	.	8ccc)	.	I
(8A-L	.	(8a-L	.	(8ee-L	.	(8cccL	.	.
8B-J)	.	8gJ)	.	8dd-J)	.	8bb-J)	.	viio6
(8B-L	.	(8gL	.	(8dd-L	.	(8bb-L	.	.
8cJ)	.	8e-J)	.	8ccJ)	.	8aa-J)	.	I6
8c	.	8e-	.	8cc	.	8aa-	.	.
=229	=229	=229	=229	=229	=229	=229	=229	=229
4.d-	.	4.f-X	.	4.b-	.	(4aa-	.	viio43(2)
.	.	.	.	.	.	4gg)	.	viio43
8r	.	8r	.	8r	.	.	.	.
4r	.	4r	.	8ee-L	.	4r	.	@none
.	.	.	.	(8ee-J	.	.	.	.
=230	=230	=230	=230	=230	=230	=230	=230	=230
2.r	.	4r	.	8ff-X)	.	4r	.	viio7
.	.	.	.	(8ff-L	.	.	.	.
.	.	8ff-X	.	8dd-J)	.	4r	.	.
.	.	(8ff-L	.	(8dd-L	.	.	.	.
.	.	8dd-J)	.	8b-J)	.	((4fff-X	.	.
.	.	(8dd-	.	(8b-	.	.	.	.
=231	=231	=231	=231	=231	=231	=231	=231	=231
!	!	!LO:TX:b:Bi:t=Cresc.	!	!LO:TX:b:Bi:t=Cresc.	!	!LO:TX:b:Bi:t=Cresc.	!	!
2.r	.	8b-)	.	8g)	.	4fff)	.	.
.	.	(8b-L	.	(8gL	.	.	.	.
.	.	8cc-XJ)	.	8a-J)	.	4eee-	.	i
.	.	(8a-L	.	4ccc-X	.	.	.	.
.	.	8dJ)	.	.	.	4aaa-)	.	#viio7/V
.	.	(8d	.	8ccc-	.	.	.	.
=232	=232	=232	=232	=232	=232	=232	=232	=232
2.r	.	8e-)	sf	(2ccc-X	sf	(2aaa-	sf	V(b64)
.	.	(8e-L	.	.	.	.	.	.
.	.	8ee-J)	.	.	.	.	.	.
.	.	(8ee-L	.	.	.	.	.	.
.	.	8e-J)	.	8.ddd-L	.	8.bbb-L	.	V7
.	.	8e-	.	.	.	.	.	.
.	.	.	.	16bb-Jk)	.	16gggJk)	.	.
*clefC4	*	*	*	*	*	*	*	*
=233	=233	=233	=233	=233	=233	=233	=233	=233
(4.e-	p	8a-L	p	8aa-L	p	4aaa-	.	I\\
.	.	8A-	.	8cJ	.	.	.	.
.	.	8A-	.	8cL	.	4r	.	I
16fLL	.	8A-	.	8cJ	.	.	.	.
16e-JJ)	.	.	.	.	.	.	.	.
8d'L	.	8A-	.	8cL	.	4r	.	.
8e-'J	.	8A-J	.	8cJ	.	.	.	.
=234	=234	=234	=234	=234	=234	=234	=234	=234
2.e-	.	8A-L	.	8cL	.	(4.ccc	.	.
.	.	8A-	.	8c	.	.	.	.
.	.	8A-	.	8c	.	.	.	.
.	.	8A-	.	8c	.	16ddd-LL	.	.
.	.	.	.	.	.	16cccJJ)	.	.
.	.	8A-	.	8c	.	8bb-'L	.	.
.	.	8A-J	.	8cJ	.	8aa-'J	.	.
=235	=235	=235	=235	=235	=235	=235	=235	=235
(4.e-	.	2.B-	.	2.d-	.	4gg	.	V43
.	.	.	.	.	.	4r	.	.
16fLL	.	.	.	.	.	.	.	.
16e-JJ)	.	.	.	.	.	.	.	.
8d'L	.	.	.	.	.	4r	.	.
8e-'J	.	.	.	.	.	.	.	.
=236	=236	=236	=236	=236	=236	=236	=236	=236
!	!	!	!	!	!	!LO:TX:b:Bi:t=Cresc.	!	!
2.e-	.	8B-L	.	8d-L 8g	.	(4.ddd-	.	.
.	.	8B-	.	8d- 8g	.	.	.	.
.	.	8B-	.	8d- 8g	.	.	.	.
.	.	8B-	.	8d- 8g	.	16eee-LL	.	.
.	.	.	.	.	.	16ddd-JJ)	.	.
.	.	8B-	.	8d- 8g	.	8ccc'L	.	.
.	.	8B-J	.	8d-J 8g	.	8bb-'J	.	.
=237	=237	=237	=237	=237	=237	=237	=237	=237
!LO:TX:b:Bi:t=Cresc.	!	!LO:TX:b:Bi:t=Cresc.	!	!LO:TX:b:Bi:t=Cresc.	!	!	!	!
(4.e-	.	8cL	.	8e-L	.	4aaX	.	#viio6/ii
.	.	8c	.	8e- 8aX	.	.	.	.
.	.	8c	.	8e- 8a	.	4r	.	.
16fLL	.	8c	.	8e- 8a	.	.	.	.
16e-JJ)	.	.	.	.	.	.	.	.
8d'L	.	8c	.	8e- 8a	.	4r	.	.
8e-'J	.	8cJ	.	8e-J 8a	.	.	.	.
=238	=238	=238	=238	=238	=238	=238	=238	=238
!	!	!	!LO:DY:a	!	!	!	!	!
2g-X	f	8cL	f f	8e-L 8aX	.	[4ggg-X	f	#viio65/ii
.	.	8c	.	8e- 8a	.	.	.	.
.	.	8c	.	8e- 8a	.	8ggg-L]	.	.
.	.	8c	.	8e- 8a	.	(16fffL	.	.
.	.	.	.	.	.	16eee-JJ	.	.
4e-	.	8c	.	8e- 8a	.	16ddd-LL	.	.
.	.	.	.	.	.	16ccc	.	.
.	.	8cJ	.	8e-J 8a	.	16bb-	.	.
.	.	.	.	.	.	16aaXJJ)	.	.
=239	=239	=239	=239	=239	=239	=239	=239	=239
4f'	fp	4d-'	fp	4b-'	fp	16bb-'LL	fp	ii6
.	.	.	.	.	.	16ff'	.	.
.	.	.	.	.	.	16gg'	.	.
.	.	.	.	.	.	16aaX'JJ	.	.
*clefF4	*	*	*	*	*	*	*	*
4D-'	.	4f'	.	4d-' 4b-	.	16bb-'LL	.	.
.	.	.	.	.	.	16ccc'	.	.
.	.	.	.	.	.	16ddd-'	.	.
.	.	.	.	.	.	16ccc'JJ	.	.
4r	.	4r	.	4r	.	16bb-'LL	.	.
.	.	.	.	.	.	16ff'	.	.
.	.	.	.	.	.	16gg'	.	.
.	.	.	.	.	.	16aa'JJ	.	.
=240	=240	=240	=240	=240	=240	=240	=240	=240
2.r	.	2.r	.	2.r	.	16bb-LL	.	.
.	.	.	.	.	.	16ccc	.	.
.	.	.	.	.	.	16ddd-	.	.
.	.	.	.	.	.	16cccJJ	.	.
.	.	.	.	.	.	16bb-LL	.	.
!	!	!	!	!	!	!LO:TX:b:Bi:t=Cresc.	!	!
.	.	.	.	.	.	16ff	.	.
.	.	.	.	.	.	16gg	.	.
.	.	.	.	.	.	16aaXJJ	.	.
.	.	.	.	.	.	16bb-LL	.	.
.	.	.	.	.	.	16ccc	.	.
.	.	.	.	.	.	16ddd-	.	.
.	.	.	.	.	.	16cccJJ	.	.
=241	=241	=241	=241	=241	=241	=241	=241	=241
4r	.	4r	.	4r	.	16bb-LL	.	.
.	.	.	.	.	.	16ff	.	.
.	.	.	.	.	.	16gg	.	.
.	.	.	.	.	.	16aaXJJ	.	.
4r	.	4r	.	4r	.	16bb-LL	.	.
.	.	.	.	.	.	16ccc	.	.
.	.	.	.	.	.	16ddd-	.	.
.	.	.	.	.	.	16cccJJ	.	.
16r	.	16r	.	16r	.	16bb-LL	.	.
!LO:TX:b:Bi:t=Cresc.	!	!LO:TX:b:Bi:t=Cresc.	!	!LO:TX:b:Bi:t=Cresc.	!	!	!	!
16FLL	.	16FLL	.	16fLL	.	16ff	.	.
16G	.	16G	.	16g	.	16gg	.	.
16AXJJ	.	16AXJJ	.	16aXJJ	.	16aaJJ	.	.
=242	=242	=242	=242	=242	=242	=242	=242	=242
16B-LL	.	16B-LL	.	16b-LL	.	16bb-LL	.	ii
16c	.	16c	.	16cc	.	16ccc	.	.
16d-	.	16d-	.	16dd-	.	16ddd-	.	.
16e-JJ	.	16e-JJ	.	16ee-JJ	.	16eee-JJ	.	.
16fLL	.	16fLL	.	16ffLL	.	16fffLL	.	.
16e-	.	16e-	.	16ee-	.	16eee-	.	.
16d-	.	16d-	.	16dd-	.	16ddd-	.	.
16cJJ	.	16cJJ	.	16ccJJ	.	16cccJJ	.	.
16B-LL	.	16B-LL	.	16b-LL	.	16bb-LL	.	.
16A-	.	16A-	.	16a-	.	16aa-	.	.
16G	.	16G	.	16g	.	16gg	.	.
16FJJ	.	16FJJ	.	16fJJ	.	16ffJJ	.	.
=243	=243	=243	=243	=243	=243	=243	=243	=243
4.E-	.	4.E-	.	4.e-	.	2.ee-	f	V
(16FLL	f	(16FLL	f	(16fLL	f	.	.	.
16GJJ	.	16GJJ	.	16gJJ	.	.	.	.
16A-LL	.	16A-LL	.	16a-LL	.	.	.	.
16B-	.	16B-	.	16b-	.	.	.	.
16c	.	16c	.	16cc	.	.	.	.
16dJJ)	.	16dJJ)	.	16ddJJ)	.	.	.	.
=244	=244	=244	=244	=244	=244	=244	=244	=244
8e-L	.	8e-L	.	8ee-L	.	2.bb-T	.	V7
8E-	.	8d-	.	8g	.	.	.	.
8E-	.	8d-	.	8g	.	.	.	.
8E-	.	8d-	.	8g	.	.	.	.
8E-	.	8d-	.	8g	.	.	.	.
8E-J	.	8d-J	.	8gJ	.	.	.	.
=245	=245	=245	=245	=245	=245	=245	=245	=245
4A-'	.	4c'	.	4a-'	.	4aa-'	.	I\\
!	!	!	!LO:DY:a	!	!	!	!	!
4r	.	(4.c	fp fp	4.e-~	.	(4.a-	fp	.
4r	.	.	.	.	.	.	.	.
.	.	8B-)	.	8e-'	.	8g)	.	V64
=246	=246	=246	=246	=246	=246	=246	=246	=246
2.r	.	(8B-L	.	(8e-L	.	(8gL	.	.
.	.	8G)	.	8b-)	.	8dd-J)	.	V65
.	.	(8G	.	(8b-	.	(8dd-L	.	.
.	.	8A-)	.	8a-)	.	8ccJ)	.	I
.	.	(8A-	.	(8a-	.	(8ccL	.	.
.	.	8d-J)	.	8a-J)	.	8ffJ)	.	IV
=247	=247	=247	=247	=247	=247	=247	=247	=247
2.r	.	(8d-L	.	(8a-L	.	(8ffL	.	.
.	.	8cJ)	.	8a-)	.	8ee-)	.	I6
.	.	(8cL	.	(8a-~	.	(8ee-	.	.
.	.	8cc)	.	8ee-)	.	8aa-)	.	.
.	.	(8cc	.	(8ee-	.	(8aa-	.	.
.	.	8b-J)	.	8dd-J)	.	8ggJ)	.	viio6
=248	=248	=248	=248	=248	=248	=248	=248	=248
2.r	.	(8b-L	.	(8dd-L	.	(8ggL	.	.
.	.	8gJ)	.	8b-J)	.	8ddd-J)	.	viio
.	.	4g	.	4b-	.	4ddd-	.	.
.	.	4r	.	4r	.	4r	.	.
=249	=249	=249	=249	=249	=249	=249	=249	=249
2.r	.	2.r	.	2.r	.	2.r	.	.
=250	=250	=250	=250	=250	=250	=250	=250	=250
2.A-	pp	2.e-	pp	2.a-	pp	([4cc	pp	I
.	.	.	.	.	.	8ccL]	.	.
.	.	.	.	.	.	16dd-L	.	.
.	.	.	.	.	.	16ccJJ)	.	.
.	.	.	.	.	.	8b-'L	.	.
.	.	.	.	.	.	8cc'J	.	.
=251	=251	=251	=251	=251	=251	=251	=251	=251
([2.D-	fp	([2.B-	fp	([2.a-	fp	([2.ff	fp	IV
=252	=252	=252	=252	=252	=252	=252	=252	=252
4D-]	.	4B-]	.	4a-]	.	4ff]	.	.
4E-')	.	4c')	.	4a-')	.	4ee-')	.	V(64)
4EE-'	.	4B-'	.	4d-'	.	4g'	.	V7
=253	=253	=253	=253	=253	=253	=253	=253	=253
4AA-'	.	4A-'	.	4c	.	4a-'	.	I\\
4r	.	(4.cc	.	(4.ee-	.	(4.aa-	fp	.
4r	.	.	.	.	.	.	.	.
!	!	!	!LO:DY:a	!	!	!	!	!
.	.	8b-)	fp fp	8dd-)	.	8gg)	.	viio6
=254	=254	=254	=254	=254	=254	=254	=254	=254
2.r	.	(8b-L	.	(8dd-L	.	(8ggL	.	.
.	.	8gJ)	.	8b-)	.	8ddd-)	.	viio
.	.	(8gL	.	(8b-	.	(8ddd-	.	.
.	.	8a-J)	.	8cc)	.	8ccc)	.	I
.	.	(8a-L	.	(8cc	.	(8ccc	.	.
.	.	8dd-J)	.	8aa-J)	.	8fffJ)	.	IV
=255	=255	=255	=255	=255	=255	=255	=255	=255
2.r	.	(8dd-L	.	(8aa-L	.	(8fffL	.	.
.	.	8ccJ)	.	8aa-)	.	8eee-J)	.	I6
.	.	(8cL	.	(8aa-	.	(8eee-L	.	.
.	.	8ccJ)	.	8ee-)	.	8aaa-J)	.	.
.	.	(8ccL	.	(8ee-	.	(8aaa-L	.	.
.	.	8b-J)	.	8dd-J)	.	8gggJ)	.	viio6
=256	=256	=256	=256	=256	=256	=256	=256	=256
2.r	.	(8b-L	.	(8dd-L	.	(8gggL	.	.
.	.	8gJ)	.	8cccJ)	.	8dddd-J)	.	viio
.	.	4g	.	4bb-	.	4dddd-	.	.
.	.	4r	.	4r	.	4r	.	.
=257	=257	=257	=257	=257	=257	=257	=257	=257
2.r	.	2.r	.	2.r	.	2.r	.	.
=258	=258	=258	=258	=258	=258	=258	=258	=258
!	!	!	!	!	!LO:DY:a	!	!	!
2.A-	sf	2.a-	sf	2.e-	sf sf	2.c-X 2.cc-X	.	i
=259	=259	=259	=259	=259	=259	=259	=259	=259
!	!	!	!	!	!LO:DY:a	!	!	!
2.F-X	sf	2.f-X	sf	2.a-	sf sf	2.c-X 2.cc-X	.	VI
=260	=260	=260	=260	=260	=260	=260	=260	=260
!	!	!	!	!	!LO:DY:a	!	!	!
2D	sf	2d	sf	2f 2a-	sf sf	2c-X 2cc-X	.	#viio7/V
!	!	!	!	!	!LO:DY:a	!	!	!
4D-X	sf	4d-X	sf	4f 4a-	sf sf	4c- 4cc-	.	.Ger6/vi
=261	=261	=261	=261	=261	=261	=261	=261	=261
4C'	.	4c'	.	4f' 4a-	.	4c 4cc	.	V(64)/vi
4BB-'	ff	4f'	ff	4b-'	ff	4dd-'	ff	ii
4E-'	.	4d-'	.	4g'	.	4b-'	.	V7
=262	=262	=262	=262	=262	=262	=262	=262	=262
(4.A-	.	8cL	.	8cL 8a-	.	4a-'	.	I\\
!	!	!	!LO:DY:a	!	!	!	!	!
.	.	8e-	p p	8cJ 8a-	.	.	.	.
.	.	8e-	.	8cL 8a-	.	4r	.	I[I6
16B-LL	p	8e-	.	8cJ 8a-	.	.	.	.
16A-JJ)	.	.	.	.	.	.	.	.
8G'L	.	8e-	.	8cL 8a-	.	4r	.	.
8A-'J	.	8e-J	.	8cJ 8a-	.	.	.	.
=263	=263	=263	=263	=263	=263	=263	=263	=263
4AA-	.	8e-L	.	8cL 8a-	.	4r	.	.
.	.	8e-	.	8cJ 8a-	.	.	.	.
4r	.	8e-	.	8cL 8a-	.	4cc	.	.
.	.	8e-	.	8cJ 8a-	.	.	.	.
4r	.	8e-	.	8cL 8a-	.	4cct	p	.
.	.	8e-J	.	8cJ 8a-	.	.	.	.
.	.	.	.	.	.	16qqb-/LL	.	.
.	.	.	.	.	.	16qqcc/JJ	.	.
=264	=264	=264	=264	=264	=264	=264	=264	=264
(4.A-	.	8e-L	.	8d-L 8b-	.	(4ee-	.	V2
.	.	8e-	.	8d- 8b-	.	.	.	.
.	.	8e-	.	8d- 8b-	.	4dd-)	.	.
16B-LL	.	8e-	.	8d- 8b-	.	.	.	.
16A-JJ)	.	.	.	.	.	.	.	.
8G'L	.	8e-	.	8d- 8b-	.	4r	.	.
8A-'J	.	8e-J	.	8d-J 8b-	.	.	.	.
=265	=265	=265	=265	=265	=265	=265	=265	=265
4AA-	.	8e-L	.	8d-L 8b-	.	4r	.	.
.	.	8e-	.	8d- 8b-	.	.	.	.
4r	.	8e-	.	8d- 8b-	.	4gg	.	.
.	.	8e-	.	8d- 8b-	.	.	.	.
4r	.	8e-	.	8d- 8b-	.	4ggt	.	.
.	.	8e-J	.	8d-J 8b-	.	.	.	.
.	.	.	.	.	.	16qqff/LL	.	.
.	.	.	.	.	.	16qqgg/JJ	.	.
=266	=266	=266	=266	=266	=266	=266	=266	=266
(16B-LL	.	8e-L	.	8cL 8a-	.	(8aa-L	.	I6
16A-	.	.	.	.	.	.	.	.
16G	.	8e-	.	8a- 8cc	.	8cccJ)	.	.
16A-JJ)	.	.	.	.	.	.	.	.
(16B-LL	.	8e-	.	8a- 8cc	.	4ee-	.	.
16A-	.	.	.	.	.	.	.	.
16G	.	8e-	.	8a- 8cc	.	.	.	.
16A-JJ)	.	.	.	.	.	.	.	.
(16B-LL	.	8e-	.	8a- 8cc	.	4r	.	.
16A-	.	.	.	.	.	.	.	.
16G	.	8e-J	.	8a-J 8cc	.	.	.	.
16A-JJ)	.	.	.	.	.	.	.	.
=267	=267	=267	=267	=267	=267	=267	=267	=267
4AA-	.	8e-L	.	8a-L 8cc	.	(16ddd-LL	.	I64
.	.	.	.	.	.	16ccc	.	.
.	.	8e-	.	8a- 8cc	.	16bb-	.	.
.	.	.	.	.	.	16cccJJ)	.	.
4r	.	8e-	.	8a- 8cc	.	(16ddd-LL	.	.
.	.	.	.	.	.	16ccc	.	.
.	.	8e-	.	8a- 8cc	.	16bb-	.	.
.	.	.	.	.	.	16cccJJ)	.	.
4r	.	8e-	.	8a- 8cc	.	(16ddd-LL	.	.
.	.	.	.	.	.	16ccc	.	.
.	.	8e-J	.	8a-J 8cc	.	16bb-	.	.
.	.	.	.	.	.	16cccJJ)	.	.
=268	=268	=268	=268	=268	=268	=268	=268	=268
(16B-LL	.	8e-L	.	8b-L 8dd-	.	(4eee-	.	V7
16A-	.	.	.	.	.	.	.	.
16G	.	8e-	.	8b- 8dd-	.	.	.	.
16A-JJ)	.	.	.	.	.	.	.	.
(16B-LL	.	8e-	.	8b- 8dd-	.	4ddd-)	.	.
16A-	.	.	.	.	.	.	.	.
16G	.	8e-	.	8b- 8dd-	.	.	.	.
16A-JJ)	.	.	.	.	.	.	.	.
(16B-LL	.	8e-	.	8b- 8dd-	.	4r	.	.
16A-	.	.	.	.	.	.	.	.
16G	.	8e-J	.	8b-J 8dd-	.	.	.	.
16A-JJ)	.	.	.	.	.	.	.	.
=269	=269	=269	=269	=269	=269	=269	=269	=269
4AA-	.	8e-L	.	8b-L 8dd-	.	(16aaa-LL	.	.
.	.	.	.	.	.	16ggg	.	.
.	.	8e-	.	8b- 8dd-	.	16fff	.	.
.	.	.	.	.	.	16gggJJ)	.	.
4r	.	8e-	.	8b- 8dd-	.	(16aaa-LL	.	.
.	.	.	.	.	.	16ggg	.	.
.	.	8e-	.	8b- 8dd-	.	16fff	.	.
.	.	.	.	.	.	16gggJJ)	.	.
4r	.	8e-	.	8b- 8dd-	.	(16aaa-LL	.	.
.	.	.	.	.	.	16ggg	.	.
.	.	8e-J	.	8b-J 8dd-	.	16fff	.	.
.	.	.	.	.	.	16gggJJ)	.	.
=270	=270	=270	=270	=270	=270	=270	=270	=270
4AA-'	.	4e-'	.	4a-' 4cc	.	8aaa-'L	.	I64
.	.	.	.	.	.	16ggg'L	.	.
.	.	.	.	.	.	16fff'JJ	.	.
4A-'	.	4e-'	.	4a-' 4cc	.	16eee-'LL	.	I64]
.	.	.	.	.	.	16ddd-'	.	.
.	.	.	.	.	.	16ccc'	.	.
.	.	.	.	.	.	16bb-'JJ	.	.
4r	.	4r	.	4r	.	16aa-'LL	.	.
.	.	.	.	.	.	16eee-'	.	.
.	.	.	.	.	.	16ddd-'	.	.
.	.	.	.	.	.	16ccc'JJ	.	.
=271	=271	=271	=271	=271	=271	=271	=271	=271
2.r	.	2.r	.	2.r	.	16bb-LL	.	I
!	!	!	!	!	!	!LO:TX:b:Bi:t=Cresc.	!	!
.	.	.	.	.	.	16aa-	.	.
.	.	.	.	.	.	16gg	.	.
.	.	.	.	.	.	16ffJJ	.	.
.	.	.	.	.	.	16ee-LL	.	.
.	.	.	.	.	.	16ccc	.	.
.	.	.	.	.	.	16bb-	.	.
.	.	.	.	.	.	16aa-JJ	.	.
.	.	.	.	.	.	16ggLL	.	.
.	.	.	.	.	.	16ff	.	.
.	.	.	.	.	.	16ee-	.	.
.	.	.	.	.	.	16dd-JJ	.	.
=272	=272	=272	=272	=272	=272	=272	=272	=272
16r	.	16r	.	16r	.	16ccLL	.	.
16A-LL	.	16a-LL	.	16aa-LL	.	16aa-	.	.
!LO:TX:b:Bi:t=Cresc.	!	!LO:TX:b:Bi:t=Cresc.	!	!LO:TX:b:Bi:t=Cresc.	!	!	!	!
16G	.	16g	.	16gg	.	16gg	.	.
16FJJ	.	16fJJ	.	16ffJJ	.	16ffJJ	.	.
16E-LL	.	16e-LL	.	16ee-LL	.	16ee-LL	.	.
16D-	.	16d-	.	16dd-	.	16dd-	.	.
16C	.	16c	.	16cc	.	16cc	.	.
16BB-JJ	.	16B-JJ	.	16b-JJ	.	16b-JJ	.	.
16AA-LL	.	16A-LL	.	16a-LL	.	16a-LL	.	.
16A-	.	16a-	.	16aa-	.	16aa-	.	.
16G	.	16g	.	16gg	.	16gg	.	.
16FJJ	.	16fJJ	.	16ffJJ	.	16ffJJ	.	.
=273	=273	=273	=273	=273	=273	=273	=273	=273
16E-LL	.	16e-LL	.	16ee-LL	.	16ee-LL	.	.
16D-	.	16d-	.	16dd-	.	16dd-	.	.
16C	.	16c	.	16cc	.	16cc	.	.
16BB-JJ	.	16B-JJ	.	16b-JJ	.	16b-JJ	.	.
(16AA-LL	.	(16A-LL	.	(16a-LL	.	(16a-LL	.	.
16GG	.	16G	.	16g	.	16g	.	.
16AA-	.	16A-	.	16a-	.	16a-	.	.
16GGJJ	.	16GJJ	.	16gJJ	.	16gJJ	.	.
16AA-LL	.	16A-LL	.	16a-LL	.	16a-LL	.	.
16GG	.	16G	.	16g	.	16g	.	.
16AA-	.	16A-	.	16a-	.	16a-	.	.
16GGJJ)	.	16GJJ)	.	16gJJ)	.	16gJJ)	.	.
=274	=274	=274	=274	=274	=274	=274	=274	=274
4AA-'	.	4A-'	.	4a-'	.	4a-'	.	.
4BB-'	ff	4B-'	ff	4b-'	ff	4b-'	ff	.
4C'	.	4c'	.	4cc'	.	4cc'	.	.
=275	=275	=275	=275	=275	=275	=275	=275	=275
4D-'	.	4d-'	.	4d-'	.	4dd-'	.	IV
4E-'	.	4e-'	.	4e-'	.	4ee-'	.	.
4F'	.	4f'	.	4f'	.	4ff'	.	.
=276	=276	=276	=276	=276	=276	=276	=276	=276
[2.G-X	.	[2.g-X	.	[2.g-X	.	[2.gg-X	.	.bVII
=277	=277	=277	=277	=277	=277	=277	=277	=277
2.G-;]	.	2.g-;]	.	2.g-;]	.	2.gg-;]	.	.
=278	=278	=278	=278	=278	=278	=278	=278	=278
4FF'	.	4F'	.	4f'	.	4f'	.	V/ii
4GG'	ff	4G'	ff	4g'	ff	4g'	ff	.
4AAX'	.	4AX'	.	4aX'	.	4aX'	.	.
=279	=279	=279	=279	=279	=279	=279	=279	=279
4BB-'	.	4B-'	.	4B-'	.	4b-'	.	ii
4C'	.	4c'	.	4c'	.	4cc'	.	.
4D-'	.	4d-'	.	4d-'	.	4dd-'	.	.
=280	=280	=280	=280	=280	=280	=280	=280	=280
[2.E-	sf	[2.e-	sf	[2.e-	sf	[2.ee-	sf	V
=281	=281	=281	=281	=281	=281	=281	=281	=281
2.E-;]	.	2.e-;]	.	2.e-;]	.	2.ee-;]	.	.
=282	=282	=282	=282	=282	=282	=282	=282	=282
!	!	!	!LO:DY:a	!	!	!	!	!
2.r	.	2.r	pp	4B-'	.	8aa-'L	pp	V7/V
.	.	.	.	.	.	(16bb-L	.	.
.	.	.	.	.	.	16aa-JJ)	.	.
.	.	.	.	4c'	.	8gg'L	.	iii
.	.	.	.	.	.	(16aa-L	.	.
.	.	.	.	.	.	16ggJJ)	.	.
.	.	.	.	4d'	.	8ffL	.	V6/V
.	.	.	.	.	.	(16ggL	.	.
.	.	.	.	.	.	16ffJJ)	.	.
=283	=283	=283	=283	=283	=283	=283	=283	=283
2.r	.	2.r	.	4e-'	.	8ee-'L	.	V
.	.	.	.	.	.	(16ffL	.	.
.	.	.	.	.	.	16ee-JJ)	.	.
.	.	.	.	4f'	.	8dd-L	.	IV6
.	.	.	.	.	.	(16ee-L	.	.
.	.	.	.	.	.	16dd-JJ)	.	.
.	.	.	.	4g'	.	8cc'L	.	viio
.	.	.	.	.	.	(16dd-L	.	.
.	.	.	.	.	.	16ccJJ)	.	.
=284	=284	=284	=284	=284	=284	=284	=284	=284
2.r	.	2.r	.	(4a-	.	(4.b-	.	V43/V
.	.	.	.	4f	.	.	.	.
.	.	.	.	.	.	16ccLL	.	.
.	.	.	.	.	.	16b-JJ)	.	.
.	.	.	.	4d)	.	8aX'L	.	V65/V
.	.	.	.	.	.	8b-'J	.	.
=285	=285	=285	=285	=285	=285	=285	=285	=285
(4D	.	(4.B-	p	4B-	.	(4fff	.	.
4F	pp	.	.	4r	.	4ddd	.	.
.	.	16cLL	.	.	.	.	.	.
.	.	16B-JJ)	.	.	.	.	.	.
4BB-)	.	8AX'L	.	4r	.	4aa-)	.	V7/V
.	.	8B-'J	.	.	.	.	.	.
=286	=286	=286	=286	=286	=286	=286	=286	=286
4E-	.	4E-'	pp	8dd-'L	.	4gg	.	V7
.	.	.	.	(16ee-L	pp	.	.	.
.	.	.	.	16dd-JJ)	.	.	.	.
4r	.	4F'	.	8cc'L	.	4r	.	.
.	.	.	.	(16dd-L	.	.	.	.
.	.	.	.	16ccJJ)	.	.	.	.
4r	.	4G'	.	8b-L	.	4r	.	.
.	.	.	.	(16ccL	.	.	.	.
.	.	.	.	16b-JJ)	.	.	.	.
=287	=287	=287	=287	=287	=287	=287	=287	=287
2.r	.	4A-'	.	8a-'L	.	2.r	.	I
.	.	.	.	(16b-L	.	.	.	.
.	.	.	.	16a-JJ)	.	.	.	.
.	.	4B-'	.	8g'L	.	.	.	.
.	.	.	.	(16a-L	.	.	.	.
.	.	.	.	16gJJ)	.	.	.	.
.	.	4c'	.	8f'L	.	.	.	.
.	.	.	.	(16gL	.	.	.	.
.	.	.	.	16fJJ)	.	.	.	.
=288	=288	=288	=288	=288	=288	=288	=288	=288
2.r	.	(4d-	.	(4.e-	.	2.r	.	V65
.	.	4B-	.	.	.	.	.	.
.	.	.	.	16fLL	.	.	.	.
.	.	.	.	16e-JJ)	.	.	.	.
.	.	4F)	.	8d'L	.	.	.	.
.	.	.	.	8e-'J	.	.	.	.
=289	=289	=289	=289	=289	=289	=289	=289	=289
(4EE-	.	4.E-	.	4dd-	.	(4bb-	.	V[V7
4GG	.	.	.	4r	.	4gg	.	.
.	.	(16fLL	.	.	.	.	.	.
.	.	16e-JJ)	.	.	.	.	.	.
4BB-)	.	8d'L	.	4r	.	4dd-)	.	.
.	.	8e-'J	.	.	.	.	.	.
=290	=290	=290	=290	=290	=290	=290	=290	=290
4E-	.	(4e-	.	(4.e-	.	4a- 4cc	.	I64
4r	.	4c	.	.	.	4r	.	.
.	.	.	.	16fLL	.	.	.	.
.	.	.	.	16e-JJ)	.	.	.	.
4r	.	4A-)	.	8d'L	.	4r	.	.
.	.	.	.	8e-'J	.	.	.	.
=291	=291	=291	=291	=291	=291	=291	=291	=291
(4EE-	.	4.E-	.	4cc	.	(4ccc	.	.
4AA-	.	.	.	4r	.	4aa-	.	.
.	.	(16fLL	.	.	.	.	.	.
.	.	16e-JJ)	.	.	.	.	.	.
4C)	.	8d'L	.	4r	.	4ee-)	.	.
.	.	8e-'J	.	.	.	.	.	.
=292	=292	=292	=292	=292	=292	=292	=292	=292
4E-	.	(4b-	.	2.r	.	(4.dd-	.	V7
!	!	!LO:TX:b:Bi:t=Cresc.	!	!	!	!	!	!
4r	.	4g	.	.	.	.	.	.
!	!	!	!	!	!	!LO:TX:b:Bi:t=Cresc.	!	!
.	.	.	.	.	.	16ee-LL	.	.
.	.	.	.	.	.	16dd-JJ)	.	.
4r	.	4e-)	.	.	.	8cc'L	.	.
.	.	.	.	.	.	8dd-'J	.	.
=293	=293	=293	=293	=293	=293	=293	=293	=293
(4EE-	.	(4gg	.	(4bb-	.	(4ddd-	.	V7]
!LO:TX:b:Bi:t=Cresc.	!	!	!	!LO:TX:b:Bi:t=Cresc.	!	!	!	!
4E-	.	4dd-	.	4gg	.	4bb-	.	.
4EX)	.	4b-)	.	4dd-X)	.	4gg)	.	#viio7/vi
=294	=294	=294	=294	=294	=294	=294	=294	=294
2.F	.	2.a-	.	2.cc	.	(4.aa-	.	vi
.	.	.	.	.	.	16bb-LL	.	.
.	.	.	.	.	.	16aa-JJ)	.	.
.	.	.	.	.	.	8gg'L	.	.
.	.	.	.	.	.	8aa-'J	.	.
=295	=295	=295	=295	=295	=295	=295	=295	=295
2.G	sf	2.d-	sf	2.eeX	sf	2.bb-	sf	#viio65/vi
=296	=296	=296	=296	=296	=296	=296	=296	=296
2.AX	.	2.g-X	.	2.ee-	.	([4ccc	.	#viio7/ii
.	.	.	.	.	.	8cccL]	.	.
.	.	.	.	.	.	16ddd-L	.	.
.	.	.	.	.	.	16cccJJ)	.	.
.	.	.	.	.	.	8bb-'L	.	.
.	.	.	.	.	.	8ccc'J	.	.
=297	=297	=297	=297	=297	=297	=297	=297	=297
2.B-	sf	2.f	sf	2.dd-	sf	2.ddd-	sf	ii
=298	=298	=298	=298	=298	=298	=298	=298	=298
2.c	.	2.b--X	.	2.gg-X	.	([4eee-	.	viio7/IV
.	.	.	.	.	.	8eee-L]	.	.
.	.	.	.	.	.	16fffL	.	.
.	.	.	.	.	.	16eee-JJ)	.	.
.	.	.	.	.	.	8ddd-'L	.	.
.	.	.	.	.	.	8eee-'J	.	.
=299	=299	=299	=299	=299	=299	=299	=299	=299
2.d	sf	2.a-	sf	2.cc-X	sf	2.fff	sf	#viio7/V
=300	=300	=300	=300	=300	=300	=300	=300	=300
2.e-	pp	(4.a-	.	(4.cc	.	4r	.	V(64)
.	.	.	.	.	.	4ee-	.	.
.	.	16b-LL	pp	16dd-LL	pp	.	.	.
.	.	16a-JJ)	.	16ccJJ)	.	.	.	.
.	.	8g'L	.	8b-'L	.	4ee-	pp	.
.	.	8a-'J	.	8cc'J	.	.	.	.
=301	=301	=301	=301	=301	=301	=301	=301	=301
2E-	.	(2b-	.	2dd-	.	(4.ee-	.	V7
.	.	.	.	.	.	16ffLL	.	.
.	.	.	.	.	.	16ee-JJ)	.	.
4EE-	.	4G)	.	4B-	.	8dd'L	.	.
.	.	.	.	.	.	8ee-'J	.	.
=302	=302	=302	=302	=302	=302	=302	=302	=302
(4.AA-	pp	4A-	pp	4c	pp	4a-	.	I\\
.	.	4E-	.	4c	.	4r	.	I[I
16BB-LL	.	.	.	.	.	.	.	.
16AA-JJ)	.	.	.	.	.	.	.	.
8GG'L	.	4E-	.	4c	.	4r	.	.
8AA-'J	.	.	.	.	.	.	.	.
=303	=303	=303	=303	=303	=303	=303	=303	=303
2.AA-	.	(2.F-X	.	2.d	.	(16a-LL	pp	.It6
.	.	.	.	.	.	16g	.	.
.	.	.	.	.	.	16f	.	.
.	.	.	.	.	.	16gJJ	.	.
.	.	.	.	.	.	16a-LL	.	.
.	.	.	.	.	.	16g	.	.
.	.	.	.	.	.	16f	.	.
.	.	.	.	.	.	16gJJ	.	.
.	.	.	.	.	.	16a-LL	.	.
.	.	.	.	.	.	16g	.	.
.	.	.	.	.	.	16f	.	.
.	.	.	.	.	.	16gJJ)	.	.
=304	=304	=304	=304	=304	=304	=304	=304	=304
(4.AA-	.	2.E-	.	4c'	.	4a-'	.	I64
.	.	.	.	4a-'	.	4cc'	.	.
16BB-LL	.	.	.	.	.	.	.	.
16AA-JJ)	.	.	.	.	.	.	.	.
8GG'L	.	.	.	4a-'	.	4cc'	.	.
8AA-'J	.	.	.	.	.	.	.	.
=305	=305	=305	=305	=305	=305	=305	=305	=305
[2.AA-	.	2.F-X	.	(16a-LL	.	2.dd-	.	iv6
.	.	.	.	16g	.	.	.	.
.	.	.	.	16f	.	.	.	.
.	.	.	.	16gJJ	.	.	.	.
.	.	.	.	16a-LL	.	.	.	.
.	.	.	.	16g	.	.	.	.
.	.	.	.	16f	.	.	.	.
.	.	.	.	16gJJ	.	.	.	.
.	.	.	.	16a-LL	.	.	.	.
.	.	.	.	16g	.	.	.	.
.	.	.	.	16f	.	.	.	.
.	.	.	.	16gJJ)	.	.	.	.
=306	=306	=306	=306	=306	=306	=306	=306	=306
4AA-]	.	4E-)	.	4a-	.	4cc	.	I64
4r	.	4a-'	.	8r	.	8r	.	.
.	.	.	.	(16dd-LL	.	(16ff-XLL	.	.
.	.	.	.	16ccJJ)	.	16ee-JJ)	.	.
4r	.	4a-'	.	8b-'L	.	8dd-'L	.	.
.	.	.	.	8cc'J	.	8ee-'J	.	.
=307	=307	=307	=307	=307	=307	=307	=307	=307
2.r	.	(16a-LL	.	2.dd-	.	2.ff-X	.	iv
.	.	16g	.	.	.	.	.	.
.	.	16f	.	.	.	.	.	.
.	.	16gJJ	.	.	.	.	.	.
.	.	16a-LL	.	.	.	.	.	.
.	.	16g	.	.	.	.	.	.
.	.	16f	.	.	.	.	.	.
.	.	16gJJ	.	.	.	.	.	.
.	.	16a-LL	.	.	.	.	.	.
.	.	16g	.	.	.	.	.	.
.	.	16f	.	.	.	.	.	.
.	.	16gJJ)	.	.	.	.	.	.
=308	=308	=308	=308	=308	=308	=308	=308	=308
4r	.	(4a-	.	4cc	.	4ee-	.	I
4AA-	.	(4ee-)	pp	8r	.	8r	.	.
.	.	.	.	16bb-LL	pp	(16ddd-LL	pp	.
.	.	.	.	16aa-JJ	.	16cccJJ)	.	.
4AA-	pp	4ee-')	.	8gg'L	.	8bb-'L	.	.
.	.	.	.	8aa-'J	.	8ccc'J	.	.
=309	=309	=309	=309	=309	=309	=309	=309	=309
!LO:TX:b:Bi:t=Cresc.	!	!LO:TX:b:Bi:t=Cresc.	!	!LO:TX:b:Bi:t=Cresc.	!	!LO:TX:b:Bi:t=Cresc.	!	!
(16AA-LL	.	2.ff-X	.	2.bb-	.	2.ddd-	.	.Fr6
16GG	.	.	.	.	.	.	.	.
16FF	.	.	.	.	.	.	.	.
16GGJJ	.	.	.	.	.	.	.	.
16AA-LL	.	.	.	.	.	.	.	.
16GG	.	.	.	.	.	.	.	.
16FF	.	.	.	.	.	.	.	.
16GGJJ	.	.	.	.	.	.	.	.
16AA-LL	.	.	.	.	.	.	.	.
16GG	.	.	.	.	.	.	.	.
16FF	.	.	.	.	.	.	.	.
16GGJJ)	.	.	.	.	.	.	.	.
=310	=310	=310	=310	=310	=310	=310	=310	=310
4AA-	f	4ee-	f	4aa-	f	(8cccL	f	I]
.	.	.	.	.	.	16ddd-L	.	.
.	.	.	.	.	.	16cccJJ)	.	.
4r	.	4r	.	4r	.	8bb-'L	.	.
.	.	.	.	.	.	8ccc'J	.	.
8G'L	sf	8g'L	sf	8gg'L	sf	8gg'L	sf	.
8A-'J	.	8a-'J	.	8aa-'J	.	8aa-'J	.	.
=311	=311	=311	=311	=311	=311	=311	=311	=311
4E-	.	4e-	.	4ee-	.	(8ee-L	.	I
.	.	.	.	.	.	16ffL	.	.
.	.	.	.	.	.	16ee-JJ)	.	.
4r	.	4r	.	4r	.	8dd'L	.	.
.	.	.	.	.	.	8ee-'J	.	.
8BBX'L	sf	8BX'L	sf	8bX'L	sf	8bX'L	sf	.
8C'J	.	8c'J	.	8cc'J	.	8cc'J	.	.
=312	=312	=312	=312	=312	=312	=312	=312	=312
4AA-	.	4A-	.	4a-	.	(8a-L	.	.
.	.	.	.	.	.	16b-L	.	.
.	.	.	.	.	.	16a-JJ)	.	.
4r	.	4r	.	4r	.	8g'L	.	.
.	.	.	.	.	.	8a-'J	.	.
8EE-'L	.	8E-'L	.	8e-'L	.	8e-'L	.	.
8GG'J	sf	8G'J	sf	8g'J	sf	8g'J	sf	.
=313	=313	=313	=313	=313	=313	=313	=313	=313
4AA-	.	4A-	.	4a-	.	4a-	.	.
4AA-	.	4A-	.	4c 4a-	.	4cc 4aa-	.	I\\
4r	.	4r	.	4r	.	4r	.	.
==	==	==	==	==	==	==	==	==
*-	*-	*-	*-	*-	*-	*-	*-	*-
!!!system-decoration: [(s1,s2,s3,s4)]
